!!!!SEGMENT: pl-stab--12a--010_raszek-waclaw--missa-solemnis-ex-g-pleni-sunt.krn
!!!cenid: 18xx:3530
!!!COM: Raszek, Wacław
!!!COM-rismid: pe30020314
!!!CDT: <1848->1848
!!!CNT:
!!!OPR: Missa Solemnis ex G
!!!OTL: Pleni sunt
!!!OMV: 010
!!!PDT: 1815
!!!AGN:
!!!SMS-siglum: PL-STAb
!!!SMS-shelfmark: 12a
!!!SMS-shelfwork: M
!!!SMS-variant:
!!!SMS-altvar:
!!!NIFC-rismid: 301050679
!!!URL-scan: https://repozytorium.nifc.pl/islandora/object/pl-stab%3A3A24642464/datastream/PDF/view
!!!ONB-nifc: UWAGA: części Mszy: 1. Kyrie, 2. Gloria, 3. Domine Deus, 4. Cum sancto spiritu, 5. In gloria Dei Patris amen, 6. Credo, 7. Et incarnatus, 8. Et resurrexit, 9. Sanctus, 10. Pleni sunt, 11. Benedictus, 12. Agnus Dei, 13. Dona nobis
!!!OMD: Allo
!!!AIN: 1 alto 1 bass 2 cor 1 flt 1 organ 1 soprn 1 tenor 1 viola 2 violn
!!!key: G
**kern	**fba	**dynam	**kern	**dynam	**kern	**dynam	**kern	**dynam	**kern	**text	**kern	**text	**kern	**text	**kern	**text	**kern	**dynam	**kern	**dynam	**kern	**kern
*part12	*part12	*part12	*part11	*part11	*part10	*part10	*part9	*part9	*part8	*part8	*part7	*part7	*part6	*part6	*part5	*part5	*part4	*part4	*part3	*part3	*part2	*part1
*staff12	*staff12	*	*staff11	*	*staff10	*	*staff9	*	*staff8	*staff8	*staff7	*staff7	*staff6	*staff6	*staff5	*staff5	*staff4	*	*staff3	*	*staff2	*staff1
*I"Organo	*	*	*I"Alto Viola	*	*I"Violino Secundo	*	*I"Violino Primo	*	*I"Baſso	*	*I"Tenore	*	*I"Alto	*	*I"Canto	*	*I"Cornu 2do	*	*I"Cornu Imo in G.	*	*I"Flauto IIdo	*I"Flauto Imo
*I'org (=bc)	*	*	*I'vla	*	*I'vl 2	*	*I'vl 1	*	*I'B	*	*I'T	*	*I'A	*	*I'S	*	*I'cor 2	*	*I'cor 1	*	*I'fl 2	*I'fl 1
*Iorgan	*	*	*Iviola	*	*Ivioln	*	*Ivioln	*	*Ibass	*	*Itenor	*	*Ialto	*	*Isoprn	*	*Icor	*	*Icor	*	*Iflt	*flt
*ICklav	*	*	*ICstr	*	*ICstr	*	*ICstr	*	*ICvox	*	*ICvox	*	*ICvox	*	*ICvox	*	*ICbras	*	*ICbras	*	*ICww	*ICww
*IGcont	*	*	*IGripn	*	*IGripn	*	*IGripn	*	*IGcoro	*	*IGcoro	*	*IGcoro	*	*IGcoro	*	*IGripn	*	*IGripn	*	*IGripn	*IGripn
*clefF4	*	*	*clefC3	*	*clefG2	*	*clefG2	*	*clefF4	*	*clefC4	*	*clefC3	*	*clefC1	*	*clefG2	*	*clefG2	*	*clefG2	*clefG2
*	*	*	*	*	*	*	*	*	*	*	*	*	*	*	*	*	*ITrd3c5	*	*ITrd3c5	*	*	*
*k[f#]	*	*	*k[f#]	*	*k[f#]	*	*k[f#]	*	*k[f#]	*	*k[f#]	*	*k[f#]	*	*k[f#]	*	*k[f#]	*	*k[f#]	*	*k[f#]	*k[f#]
*G:	*	*	*G:	*	*G:	*	*G:	*	*G:	*	*G:	*	*G:	*	*G:	*	*G:	*	*G:	*	*G:	*G:
*M4/4	*	*	*M4/4	*	*M4/4	*	*M4/4	*	*M4/4	*	*M4/4	*	*M4/4	*	*M4/4	*	*M4/4	*	*M4/4	*	*M4/4	*M4/4
*met(c)	*	*	*met(c)	*	*met(c)	*	*met(c)	*	*met(c)	*	*met(c)	*	*met(c)	*	*met(c)	*	*met(c)	*	*met(c)	*	*met(c)	*met(c)
=1	=1	=1	=1	=1	=1	=1	=1	=1	=1	=1	=1	=1	=1	=1	=1	=1	=1	=1	=1	=1	=1	=1
*	*	*	*tremolo	*	*	*	*	*	*	*	*	*	*	*	*	*	*	*	*	*	*	*
*	*	*	*2\right	*	*	*	*	*	*2\right	*	*2\right	*	*2\right	*	*2\right	*	*	*	*	*	*	*
!LO:TX:a:i:t=Tutti	!	!	!	!	!	!	!LO:TX:a:t=Allo	!LO:DY:a:t=for	!	!	!	!	!	!	!	!	!	!	!	!	!	!
!LO:TX:a:t=Allo	!	!	!LO:TX:a:t=Allo	!LO:DY:a:t=for	!LO:TX:a:t=allo	!LO:DY:a:t=for	!LO:TX:t=P:problem=mixed beam	!LO:DY:a	!LO:TX:a:t=Allo	!	!LO:TX:a:t=Allo	!	!	!	!LO:TX:a:t=Allo	!	!LO:TX:a:t=Allo	!LO:DY:a:t=for	!LO:TX:a:t=Allo	!LO:DY:a	!LO:TX:a:t=Allo	!LO:TX:a:t=Allo
4GG/	.	.	8g\L	f	16d/LL	f	8g/L	f	2G\	Ple-	2d\	Ple-	2g\	Ple-	2b\	Ple-	4B/	f	4g\	f	4b\	4gg\
.	.	.	.	.	16b/	.	.	.	.	.	.	.	.	.	.	.	.	.	.	.	.	.
.	.	.	8g\	.	16d/	.	8gg\	.	.	.	.	.	.	.	.	.	.	.	.	.	.	.
.	.	.	.	.	16b/JJ	.	.	.	.	.	.	.	.	.	.	.	.	.	.	.	.	.
*	*	*	*	*	*rep	*	*	*	*	*	*	*	*	*	*	*	*	*	*	*	*	*
4G\	.	.	8g\	.	16d/LL	.	8gg\	.	.	.	.	.	.	.	.	.	8B/L	.	8g\L	.	8b\L	8gg\L
.	.	.	.	.	16b/	.	.	.	.	.	.	.	.	.	.	.	.	.	.	.	.	.
.	.	.	8g\J	.	16d/	.	8gg\J	.	.	.	.	.	.	.	.	.	8B/J	.	8g\J	.	8b\J	8gg\J
.	.	.	.	.	16b/JJ	.	.	.	.	.	.	.	.	.	.	.	.	.	.	.	.	.
*	*	*	*	*	*Xrep	*	*	*	*	*	*	*	*	*	*	*	*	*	*	*	*	*
*	*	*	*	*	*rep	*	*	*	*	*	*	*	*	*	*	*	*	*	*	*	*	*
4G\	.	.	8g\L	.	16d/LL	.	16gg\LL	.	4G\	-ni	4d\	-ni	4g\	-ni	4b\	-ni	4B/	.	4g\	.	4b\	4gg\
.	.	.	.	.	16b/	.	16aa\	.	.	.	.	.	.	.	.	.	.	.	.	.	.	.
.	.	.	8g\	.	16d/	.	16bb\	.	.	.	.	.	.	.	.	.	.	.	.	.	.	.
.	.	.	.	.	16b/JJ	.	16aa\JJ	.	.	.	.	.	.	.	.	.	.	.	.	.	.	.
*	*	*	*	*	*Xrep	*	*	*	*	*	*	*	*	*	*	*	*	*	*	*	*	*
*	*	*	*	*	*rep	*	*	*	*	*	*	*	*	*	*	*	*	*	*	*	*	*
4r	.	.	8g\	.	16d/LL	.	16gg\LL	.	4G\	sunt	4d\	sunt	4g\	sunt	4b\	sunt	4B/	.	4g\	.	4b\	4gg\
.	.	.	.	.	16b/	.	16aa\	.	.	.	.	.	.	.	.	.	.	.	.	.	.	.
.	.	.	8g\J	.	16d/	.	16bb\	.	.	.	.	.	.	.	.	.	.	.	.	.	.	.
.	.	.	.	.	16b/JJ	.	16aa\JJ	.	.	.	.	.	.	.	.	.	.	.	.	.	.	.
*	*	*	*Xtremolo	*	*Xrep	*	*	*	*	*	*	*	*	*	*	*	*	*	*	*	*	*
=2	=2	=2	=2	=2	=2	=2	=2	=2	=2	=2	=2	=2	=2	=2	=2	=2	=2	=2	=2	=2	=2	=2
!LO:TX:t=P:problem=mixed beam	!	!	!LO:TX:t=P:problem=mixed beam	!	!LO:TX:t=P:problem=mixed beam	!	!	!	!	!	!	!	!	!	!	!	!	!	!	!	!	!
8GG/L	8 3	.	8G/L	.	16d/LL	.	4gg\	.	2G\	Coe-	2d\	Coe-	2g\	Coe-	2b\	Coe-	1B	.	1g	.	1b	1gg
.	.	.	.	.	16b\	.	.	.	.	.	.	.	.	.	.	.	.	.	.	.	.	.
8G\	.	.	8g\	.	16d/	.	.	.	.	.	.	.	.	.	.	.	.	.	.	.	.	.
.	.	.	.	.	16b\	.	.	.	.	.	.	.	.	.	.	.	.	.	.	.	.	.
8G\	.	.	8g\	.	16d/	.	4gg\	.	.	.	.	.	.	.	.	.	.	.	.	.	.	.
.	.	.	.	.	16b\	.	.	.	.	.	.	.	.	.	.	.	.	.	.	.	.	.
8G\J	.	.	8g\J	.	16d/	.	.	.	.	.	.	.	.	.	.	.	.	.	.	.	.	.
.	.	.	.	.	16b\JJ	.	.	.	.	.	.	.	.	.	.	.	.	.	.	.	.	.
*	*	*	*	*	*rep	*	*	*	*	*	*	*	*	*	*	*	*	*	*	*	*	*
!	!	!	!	!	!LO:TX:t=P:problem=mixed beam	!	!	!	!	!	!	!	!	!	!	!	!	!	!	!	!	!
16G\LL	.	.	16g\LL	.	16d/LL	.	4gg\	.	4G\	-li	4d\	-li	4g\	-li	4b\	-li	.	.	.	.	.	.
16A\	.	.	16a\	.	16b\	.	.	.	.	.	.	.	.	.	.	.	.	.	.	.	.	.
16B\	.	.	16b\	.	16d/	.	.	.	.	.	.	.	.	.	.	.	.	.	.	.	.	.
16A\JJ	.	.	16a\JJ	.	16b\	.	.	.	.	.	.	.	.	.	.	.	.	.	.	.	.	.
16G\LL	.	.	16g\LL	.	16d/	.	4r	.	4G\	et	4d\	et	4g\	et	4b\	et	.	.	.	.	.	.
16A\	.	.	16a\	.	16b\	.	.	.	.	.	.	.	.	.	.	.	.	.	.	.	.	.
16B\	.	.	16b\	.	16d/	.	.	.	.	.	.	.	.	.	.	.	.	.	.	.	.	.
16G\JJ	.	.	16a\JJ	.	16b\JJ	.	.	.	.	.	.	.	.	.	.	.	.	.	.	.	.	.
*	*	*	*	*	*Xrep	*	*	*	*	*	*	*	*	*	*	*	*	*	*	*	*	*
=3	=3	=3	=3	=3	=3	=3	=3	=3	=3	=3	=3	=3	=3	=3	=3	=3	=3	=3	=3	=3	=3	=3
*	*	*	*tremolo	*	*2\right	*	*	*	*	*	*	*	*	*	*	*	*	*	*	*	*	*
!	!	!	!	!	!	!	!LO:TX:t=P:problem=mixed beam	!	!	!	!	!	!	!	!	!	!	!	!	!	!	!
4E\	5 3	.	8e\L	.	16g\LL	.	8g/L	.	2E\	ter-	2e\	ter-	2g\	ter-	2b\	ter-	4B/	.	4g\	.	4b\	4gg\
.	.	.	.	.	16b\	.	.	.	.	.	.	.	.	.	.	.	.	.	.	.	.	.
.	.	.	8e\	.	16g\	.	8gg\	.	.	.	.	.	.	.	.	.	.	.	.	.	.	.
.	.	.	.	.	16b\	.	.	.	.	.	.	.	.	.	.	.	.	.	.	.	.	.
4E\	_	.	8e\	.	16g\	.	8gg\	.	.	.	.	.	.	.	.	.	8B/L	.	8g\L	.	8b\L	8gg\L
.	.	.	.	.	16b\	.	.	.	.	.	.	.	.	.	.	.	.	.	.	.	.	.
.	.	.	8e\J	.	16g\	.	8gg\J	.	.	.	.	.	.	.	.	.	8B/J	.	8g\J	.	8b\J	8gg\J
.	.	.	.	.	16b\JJ	.	.	.	.	.	.	.	.	.	.	.	.	.	.	.	.	.
*	*	*	*	*	*rep	*	*	*	*	*	*	*	*	*	*	*	*	*	*	*	*	*
4E\	x	.	8e\L	.	16g\LL	.	16gg\LL	.	2E\	-ra	2e\	-ra	2g\	-ra	2b\	-ra	4B/	.	4g\	.	4b\	4gg\
.	.	.	.	.	16b\	.	16aa\	.	.	.	.	.	.	.	.	.	.	.	.	.	.	.
.	.	.	8e\	.	16g\	.	16bb\	.	.	.	.	.	.	.	.	.	.	.	.	.	.	.
.	.	.	.	.	16b\	.	16aa\JJ	.	.	.	.	.	.	.	.	.	.	.	.	.	.	.
4r	.	.	8e\	.	16g\	.	16gg\LL	.	.	.	.	.	.	.	.	.	4B/	.	4g\	.	4b\	4gg\
.	.	.	.	.	16b\	.	16aa\	.	.	.	.	.	.	.	.	.	.	.	.	.	.	.
.	.	.	8e\J	.	16g\	.	16bb\	.	.	.	.	.	.	.	.	.	.	.	.	.	.	.
.	.	.	.	.	16b\JJ	.	16aa\JJ	.	.	.	.	.	.	.	.	.	.	.	.	.	.	.
*	*	*	*Xtremolo	*	*Xrep	*	*	*	*	*	*	*	*	*	*	*	*	*	*	*	*	*
=4	=4	=4	=4	=4	=4	=4	=4	=4	=4	=4	=4	=4	=4	=4	=4	=4	=4	=4	=4	=4	=4	=4
*	*	*	*	*	*rep	*	*	*	*	*	*	*	*	*	*	*	*	*	*	*	*	*
!LO:TX:t=P:problem=mixed beam	!	!	!LO:TX:t=P:problem=mixed beam	!	!	!	!	!	!	!	!	!	!	!	!	!	!	!	!	!	!	!
8EE/L	.	.	8E/L	.	16g\LL	.	4gg\	.	2E\	glo-	2e\	glo-	2g\	glo-	2b\	glo-	1B	.	1g	.	1b	1gg
.	.	.	.	.	16b\	.	.	.	.	.	.	.	.	.	.	.	.	.	.	.	.	.
8E\	_	.	8e\	.	16g\	.	.	.	.	.	.	.	.	.	.	.	.	.	.	.	.	.
.	.	.	.	.	16b\	.	.	.	.	.	.	.	.	.	.	.	.	.	.	.	.	.
8E\	.	.	8e\	.	16g\	.	4gg\	.	.	.	.	.	.	.	.	.	.	.	.	.	.	.
.	.	.	.	.	16b\	.	.	.	.	.	.	.	.	.	.	.	.	.	.	.	.	.
8E\J	x	.	8e\J	.	16g\	.	.	.	.	.	.	.	.	.	.	.	.	.	.	.	.	.
.	.	.	.	.	16b\JJ	.	.	.	.	.	.	.	.	.	.	.	.	.	.	.	.	.
*	*	*	*	*	*Xrep	*	*	*	*	*	*	*	*	*	*	*	*	*	*	*	*	*
*	*	*	*	*	*rep	*	*	*	*	*	*	*	*	*	*	*	*	*	*	*	*	*
16E\LL	.	.	16e\LL	.	16g\LL	.	4gg\	.	4E\	-ri-	4e\	-ri-	4g\	-ri-	4b\	-ri-	.	.	.	.	.	.
16F#\	.	.	16f#\	.	16b\	.	.	.	.	.	.	.	.	.	.	.	.	.	.	.	.	.
16G\	.	.	16g\	.	16g\	.	.	.	.	.	.	.	.	.	.	.	.	.	.	.	.	.
16F#\JJ	.	.	16f#\JJ	.	16b\	.	.	.	.	.	.	.	.	.	.	.	.	.	.	.	.	.
16E\LL	.	.	16e\LL	.	16g\	.	4r	.	4E\	-a	4e\	-a	4g\	-a	4b\	-a	.	.	.	.	.	.
16F#\	.	.	16f#\	.	16b\	.	.	.	.	.	.	.	.	.	.	.	.	.	.	.	.	.
16G\	.	.	16g\	.	16g\	.	.	.	.	.	.	.	.	.	.	.	.	.	.	.	.	.
16E\JJ	.	.	16e\JJ	.	16b\JJ	.	.	.	.	.	.	.	.	.	.	.	.	.	.	.	.	.
*	*	*	*	*	*Xrep	*	*	*	*	*	*	*	*	*	*	*	*	*	*	*	*	*
=5	=5	=5	=5	=5	=5	=5	=5	=5	=5	=5	=5	=5	=5	=5	=5	=5	=5	=5	=5	=5	=5	=5
*	*	*	*tremolo	*	*	*	*	*	*	*	*	*	*	*	*	*	*	*	*	*	*	*
!	!	!	!	!	!	!	!LO:TX:t=P:problem=mixed beam	!	!	!	!	!	!	!	!	!	!	!	!	!	!	!
4C#X/	6 5	.	8c#X\L	.	16e/LL	.	8g/L	.	1C#X	tu-	1e	tu-	1g	tu-	1a	tu-	4a\	.	4a\	.	1ee	4gg\
.	.	.	.	.	16a/	.	.	.	.	.	.	.	.	.	.	.	.	.	.	.	.	.
.	.	.	8c#\	.	16e/	.	8gg\	.	.	.	.	.	.	.	.	.	.	.	.	.	.	.
.	.	.	.	.	16a/JJ	.	.	.	.	.	.	.	.	.	.	.	.	.	.	.	.	.
!	!	!	!	!	!LO:LB:g=original	!	!	!	!	!	!	!	!	!	!	!	!	!	!	!	!	!
=-	=-	=-	=-	=-	=-	=-	=-	=-	=-	=-	=-	=-	=-	=-	=-	=-	=-	=-	=-	=-	=-	=-
4C#/	.	.	8c#\	.	16e/LL	.	8gg\	.	.	.	.	.	.	.	.	.	8a\L	.	8a\L	.	.	8gg\L
.	.	.	.	.	16a/	.	.	.	.	.	.	.	.	.	.	.	.	.	.	.	.	.
.	.	.	8c#\J	.	16e/	.	8gg\J	.	.	.	.	.	.	.	.	.	8a\J	.	8a\J	.	.	8gg\J
.	.	.	.	.	16a/JJ	.	.	.	.	.	.	.	.	.	.	.	.	.	.	.	.	.
*	*	*	*	*	*rep	*	*	*	*	*	*	*	*	*	*	*	*	*	*	*	*	*
4C#/	.	.	8c#\L	.	16e/LL	.	16gg\LL	.	.	.	.	.	.	.	.	.	4a\	.	4a\	.	.	4gg\
.	.	.	.	.	16a/	.	16aa\	.	.	.	.	.	.	.	.	.	.	.	.	.	.	.
.	.	.	8c#\	.	16e/	.	16bb\	.	.	.	.	.	.	.	.	.	.	.	.	.	.	.
.	.	.	.	.	16a/JJ	.	16aa\JJ	.	.	.	.	.	.	.	.	.	.	.	.	.	.	.
*	*	*	*	*	*Xrep	*	*	*	*	*	*	*	*	*	*	*	*	*	*	*	*	*
*	*	*	*	*	*rep	*	*	*	*	*	*	*	*	*	*	*	*	*	*	*	*	*
4r	.	.	8c#\	.	16e/LL	.	16ff#\LL	.	.	.	.	.	.	.	.	.	4a\	.	4a\	.	.	4gg\
.	.	.	.	.	16a/	.	16gg\	.	.	.	.	.	.	.	.	.	.	.	.	.	.	.
.	.	.	8c#\J	.	16e/	.	16aa\	.	.	.	.	.	.	.	.	.	.	.	.	.	.	.
.	.	.	.	.	16a/JJ	.	16gg\JJ	.	.	.	.	.	.	.	.	.	.	.	.	.	.	.
*	*	*	*Xtremolo	*	*Xrep	*	*	*	*	*	*	*	*	*	*	*	*	*	*	*	*	*
=6	=6	=6	=6	=6	=6	=6	=6	=6	=6	=6	=6	=6	=6	=6	=6	=6	=6	=6	=6	=6	=6	=6
!	!	!	!LO:TX:t=P:problem=mixed beam	!	!	!	!	!	!	!	!	!	!	!	!	!	!	!	!	!	!	!
8D\L	8 3	.	8D/L	.	16A/LL	.	8a/ 8ff#	.	4D\	-a	4d\	-a	4f#\	-a	4a\	-a	4d/	.	4a\	.	1dd	1ff#
.	.	.	.	.	16f#/	.	.	.	.	.	.	.	.	.	.	.	.	.	.	.	.	.
8d\	.	.	8d\	.	16A/	.	4a/ 4ff#	.	.	.	.	.	.	.	.	.	.	.	.	.	.	.
.	.	.	.	.	16f#/JJ	.	.	.	.	.	.	.	.	.	.	.	.	.	.	.	.	.
*	*	*	*	*	*rep	*	*	*	*	*	*	*	*	*	*	*	*	*	*	*	*	*
8d\	.	.	8d\	.	16A/LL	.	.	.	4d\	Ple-	4A\	Ple-	4f#\	Ple-	4dd\	Ple-	4r	.	4r	.	.	.
.	.	.	.	.	16f#/	.	.	.	.	.	.	.	.	.	.	.	.	.	.	.	.	.
8d\J	.	.	8d\J	.	16A/	.	4a/ 4ff#	.	.	.	.	.	.	.	.	.	.	.	.	.	.	.
.	.	.	.	.	16f#/JJ	.	.	.	.	.	.	.	.	.	.	.	.	.	.	.	.	.
*	*	*	*	*	*Xrep	*	*	*	*	*	*	*	*	*	*	*	*	*	*	*	*	*
!LO:LB:g=original	!	!	!	!	!	!	!	!	!	!	!	!	!	!	!	!	!	!	!	!	!	!
=-	=-	=-	=-	=-	=-	=-	=-	=-	=-	=-	=-	=-	=-	=-	=-	=-	=-	=-	=-	=-	=-	=-
*	*	*	*	*	*rep	*	*	*	*	*	*	*	*	*	*	*	*	*	*	*	*	*
16d\LL	.	.	16d\LL	.	16A/LL	.	.	.	4d\	-ni	4A\	-ni	4f#\	-ni	4dd\	-ni-	2r	.	2r	.	.	.
16e\	.	.	16e\	.	16f#/	.	.	.	.	.	.	.	.	.	.	.	.	.	.	.	.	.
16f#\	.	.	16f#\	.	16A/	.	4a/ 4ff#	.	.	.	.	.	.	.	.	.	.	.	.	.	.	.
16e\JJ	.	.	16e\JJ	.	16f#/JJ	.	.	.	.	.	.	.	.	.	.	.	.	.	.	.	.	.
*	*	*	*	*	*Xrep	*	*	*	*	*	*	*	*	*	*	*	*	*	*	*	*	*
*	*	*	*	*	*rep	*	*	*	*	*	*	*	*	*	*	*	*	*	*	*	*	*
16d\LL	.	.	16d\LL	.	16A/LL	.	.	.	4d\	sunt	4A\	sunt	4f#\	sunt	4dd\	-sunt	.	.	.	.	.	.
16e\	.	.	16e\	.	16f#/	.	.	.	.	.	.	.	.	.	.	.	.	.	.	.	.	.
!	!	!	!	!	!	!	!LO:TX:b:t=V.Cito	!	!	!	!	!	!	!	!	!	!	!	!	!	!	!
16f#\	.	.	16f#\	.	16A/	.	8a/ 8ff#	.	.	.	.	.	.	.	.	.	.	.	.	.	.	.
16e\JJ	.	.	16d\JJ	.	16f#/JJ	.	.	.	.	.	.	.	.	.	.	.	.	.	.	.	.	.
*	*	*	*	*	*Xrep	*	*	*	*	*	*	*	*	*	*	*	*	*	*	*	*	*
!	!	!	!	!	!	!	!LO:PB:g=original	!	!LO:LB:g=original	!	!	!	!	!	!	!	!	!	!	!	!	!
=7	=7	=7	=7	=7	=7	=7	=7	=7	=7	=7	=7	=7	=7	=7	=7	=7	=7	=7	=7	=7	=7	=7
*	*	*	*	*	*tremolo	*	*	*	*	*	*	*	*	*	*	*	*	*	*	*	*	*
!LO:TX:t=P:problem=mixed beam	!	!	!LO:TX:t=P:problem=mixed beam	!	!	!	!	!	!	!	!	!	!	!	!	!	!	!	!	!	!	!
8BB/L	.	.	8B/L	.	16ff#\LL	.	8ff#X\	.	2B\	Coe-	2B\	Coe-	2f#\	Coe-	2dd\	Coe-	4d/	.	4d/	.	1ff#	1ddd
.	.	.	.	.	16ff#\	.	.	.	.	.	.	.	.	.	.	.	.	.	.	.	.	.
8B\	_	.	8b\	.	16ff#\	.	4ddd\	.	.	.	.	.	.	.	.	.	.	.	.	.	.	.
.	.	.	.	.	16ff#\JJ	.	.	.	.	.	.	.	.	.	.	.	.	.	.	.	.	.
8B\	.	.	8b\	.	16ff#\LL	.	.	.	.	.	.	.	.	.	.	.	8d/L	.	8d/L	.	.	.
.	.	.	.	.	16ff#\	.	.	.	.	.	.	.	.	.	.	.	.	.	.	.	.	.
8B\J	x	.	8b\J	.	16ff#\	.	4ddd\	.	.	.	.	.	.	.	.	.	8d/J	.	8d/J	.	.	.
.	.	.	.	.	16ff#\JJ	.	.	.	.	.	.	.	.	.	.	.	.	.	.	.	.	.
!	!	!	!LO:LB:g=original	!	!	!	!	!	!	!	!	!	!	!	!	!	!	!	!	!	!	!
=-	=-	=-	=-	=-	=-	=-	=-	=-	=-	=-	=-	=-	=-	=-	=-	=-	=-	=-	=-	=-	=-	=-
16B\LL	.	.	16b\LL	.	16ff#\LL	.	.	.	4B\	-li	4B\	-li	4f#\	-li	4dd\	-li	4d/	.	4d/	.	.	.
16c#X\	.	.	16cc#X\	.	16ff#\	.	.	.	.	.	.	.	.	.	.	.	.	.	.	.	.	.
16d\	.	.	16dd\	.	16ff#\	.	4ddd\	.	.	.	.	.	.	.	.	.	.	.	.	.	.	.
16c#\JJ	.	.	16cc#\JJ	.	16ff#\	.	.	.	.	.	.	.	.	.	.	.	.	.	.	.	.	.
16B\LL	.	.	16b\LL	.	16ff#\	.	.	.	4B\	et	4B\	et	4f#\	et	4dd\	et	4r	.	4r	.	.	.
16c#\	.	.	16cc#\	.	16ff#\	.	.	.	.	.	.	.	.	.	.	.	.	.	.	.	.	.
16d\	.	.	16dd\	.	16ff#\	.	8ddd\	.	.	.	.	.	.	.	.	.	.	.	.	.	.	.
16c#\JJ	.	.	16b\JJ	.	16ff#\JJ	.	.	.	.	.	.	.	.	.	.	.	.	.	.	.	.	.
*	*	*	*	*	*Xtremolo	*	*	*	*	*	*	*	*	*	*	*	*	*	*	*	*	*
!	!	!	!	!	!	!	!	!	!	!	!LO:PB:g=original	!	!LO:LB:g=original	!	!LO:LB:g=original	!	!LO:LB:g=original	!	!	!	!	!LO:LB:g=original
=8	=8	=8	=8	=8	=8	=8	=8	=8	=8	=8	=8	=8	=8	=8	=8	=8	=8	=8	=8	=8	=8	=8
*2\right	*	*	*	*	*	*	*	*	*	*	*	*	*	*	*	*	*	*	*	*	*	*
*tremolo	*	*	*tremolo	*	*	*	*	*	*	*	*	*	*	*	*	*	*	*	*	*	*	*
!	!	!	!	!	!LO:TX:t=P:problem=mixed beam	!	!	!	!	!	!	!	!	!	!	!	!	!	!	!	!	!
8B\L	6\	.	8b\L	.	16d/LL	.	8ddd\	.	2B\	ter-	2B\	ter-	2g#X\	ter-	2dd\	ter-	1r	.	1r	.	1ee	1gg#X
.	.	.	.	.	16dd\	.	.	.	.	.	.	.	.	.	.	.	.	.	.	.	.	.
8B\	.	.	8b\	.	16d/	.	4gg#X\	.	.	.	.	.	.	.	.	.	.	.	.	.	.	.
.	.	.	.	.	16dd\JJ	.	.	.	.	.	.	.	.	.	.	.	.	.	.	.	.	.
*	*	*	*	*	*rep	*	*	*	*	*	*	*	*	*	*	*	*	*	*	*	*	*
!	!	!	!	!	!LO:TX:t=P:problem=mixed beam	!	!	!	!	!	!	!	!	!	!	!	!	!	!	!	!	!
8B\	.	.	8b\	.	16d/LL	.	.	.	.	.	.	.	.	.	.	.	.	.	.	.	.	.
.	.	.	.	.	16dd\	.	.	.	.	.	.	.	.	.	.	.	.	.	.	.	.	.
8B\J	.	.	8b\J	.	16d/	.	4gg#\	.	.	.	.	.	.	.	.	.	.	.	.	.	.	.
.	.	.	.	.	16dd\JJ	.	.	.	.	.	.	.	.	.	.	.	.	.	.	.	.	.
*	*	*	*	*	*Xrep	*	*	*	*	*	*	*	*	*	*	*	*	*	*	*	*	*
*	*	*	*	*	*rep	*	*	*	*	*	*	*	*	*	*	*	*	*	*	*	*	*
!	!	!	!	!	!LO:TX:t=P:problem=mixed beam	!	!	!	!	!	!	!	!	!	!	!	!	!	!	!	!	!
8B\L	_	.	8B/L	.	16d/LL	.	.	.	2B\	-ra	2B\	-ra	2g#\	-ra	2dd\	-ra	.	.	.	.	.	.
.	.	.	.	.	16dd\	.	.	.	.	.	.	.	.	.	.	.	.	.	.	.	.	.
8B\	.	.	8B/	.	16d/	.	4gg#\	.	.	.	.	.	.	.	.	.	.	.	.	.	.	.
.	.	.	.	.	16dd\JJ	.	.	.	.	.	.	.	.	.	.	.	.	.	.	.	.	.
*	*	*	*	*	*Xrep	*	*	*	*	*	*	*	*	*	*	*	*	*	*	*	*	*
*	*	*	*	*	*rep	*	*	*	*	*	*	*	*	*	*	*	*	*	*	*	*	*
!	!	!	!	!	!LO:TX:t=P:problem=mixed beam	!	!	!	!	!	!	!	!	!	!	!	!	!	!	!	!	!
8B\	.	.	8B/	.	16d/LL	.	.	.	.	.	.	.	.	.	.	.	.	.	.	.	.	.
.	.	.	.	.	16dd\	.	.	.	.	.	.	.	.	.	.	.	.	.	.	.	.	.
8B\J	x	.	8B/J	.	16d/	.	8gg#\	.	.	.	.	.	.	.	.	.	.	.	.	.	.	.
.	.	.	.	.	16dd\JJ	.	.	.	.	.	.	.	.	.	.	.	.	.	.	.	.	.
*	*	*	*	*	*Xrep	*	*	*	*	*	*	*	*	*	*	*	*	*	*	*	*	*
!	!	!	!	!	!	!	!	!	!	!	!	!	!	!	!	!	!	!	!LO:LB:g=original	!	!	!
=9	=9	=9	=9	=9	=9	=9	=9	=9	=9	=9	=9	=9	=9	=9	=9	=9	=9	=9	=9	=9	=9	=9
*	*	*	*	*	*	*	*^	*	*	*	*	*	*	*	*	*	*	*	*	*	*	*
8c#X\L	6 5	.	8c#X\L	.	16a\LL	.	8gg#X/	1a	.	2c#X\	glo-	2e\	glo-	2gn\	glo-	2ee\	glo-	4a\	.	4a\	.	1ee	1ggn
.	.	.	.	.	16ee\	.	.	.	.	.	.	.	.	.	.	.	.	.	.	.	.	.	.
8c#\	.	.	8c#\	.	16a\	.	4gg#/	.	.	.	.	.	.	.	.	.	.	.	.	.	.	.	.
.	.	.	.	.	16ee\JJ	.	.	.	.	.	.	.	.	.	.	.	.	.	.	.	.	.	.
*	*	*	*	*	*rep	*	*	*	*	*	*	*	*	*	*	*	*	*	*	*	*	*	*
8c#\	.	.	8c#\	.	16a\LL	.	.	.	.	.	.	.	.	.	.	.	.	8a\L	.	8a\L	.	.	.
.	.	.	.	.	16ee\	.	.	.	.	.	.	.	.	.	.	.	.	.	.	.	.	.	.
8c#\J	.	.	8c#\J	.	16a\	.	4gg#/	.	.	.	.	.	.	.	.	.	.	8a\J	.	8a\J	.	.	.
.	.	.	.	.	16ee\JJ	.	.	.	.	.	.	.	.	.	.	.	.	.	.	.	.	.	.
*	*	*	*	*	*Xrep	*	*	*	*	*	*	*	*	*	*	*	*	*	*	*	*	*	*
*	*	*	*	*	*rep	*	*	*	*	*	*	*	*	*	*	*	*	*	*	*	*	*	*
8C#X/L	_	.	8c#\L	.	16a\LL	.	.	.	.	4c#\	-ri-	4e\	-ri-	4g\	-ri-	4ee\	-ri-	4a\	.	4a\	.	.	.
.	.	.	.	.	16ee\	.	.	.	.	.	.	.	.	.	.	.	.	.	.	.	.	.	.
8C#/	.	.	8c#\	.	16a\	.	4gg#/	.	.	.	.	.	.	.	.	.	.	.	.	.	.	.	.
.	.	.	.	.	16ee\JJ	.	.	.	.	.	.	.	.	.	.	.	.	.	.	.	.	.	.
*	*	*	*	*	*Xrep	*	*	*	*	*	*	*	*	*	*	*	*	*	*	*	*	*	*
*	*	*	*	*	*rep	*	*	*	*	*	*	*	*	*	*	*	*	*	*	*	*	*	*
8C#/	.	.	8c#\	.	16a\LL	.	.	.	.	4c#\	-a	4e\	-a	4g\	-a	4ee\	-a	4a\	.	4a\	.	.	.
.	.	.	.	.	16ee\	.	.	.	.	.	.	.	.	.	.	.	.	.	.	.	.	.	.
8C#/J	x	.	8c#\J	.	16a\	.	8gg#/	.	.	.	.	.	.	.	.	.	.	.	.	.	.	.	.
.	.	.	.	.	16ee\JJ	.	.	.	.	.	.	.	.	.	.	.	.	.	.	.	.	.	.
*Xtremolo	*	*	*	*	*Xrep	*	*	*	*	*	*	*	*	*	*	*	*	*	*	*	*	*	*
*	*	*	*	*	*	*	*v	*v	*	*	*	*	*	*	*	*	*	*	*	*	*	*	*
=10	=10	=10	=10	=10	=10	=10	=10	=10	=10	=10	=10	=10	=10	=10	=10	=10	=10	=10	=10	=10	=10	=10
*	*	*	*	*	*	*	*	*	*	*ij	*	*ij	*	*ij	*	*ij	*	*	*	*	*	*
8D\L	8 3	.	8d\L	.	8a/	.	8ff#\	.	4.d\	glo-	4.A\	glo-	4.f#\	glo-	4.dd\	glo-	4a\	.	4a\	.	1dd	1ff#
8d\	_	.	8d\	.	4a/	.	4ff#\	.	.	.	.	.	.	.	.	.	.	.	.	.	.	.
8d\	.	.	8d\	.	.	.	.	.	.	.	.	.	.	.	.	.	8a\L	.	8a\L	.	.	.
8d\J	x	.	8d\J	.	8a/	.	8ff#\	.	8D\	-ri-	8A\	-ri-	8f#\	-ri-	8dd\	-ri-	8a\J	.	8a\J	.	.	.
*	*	*	*Xtremolo	*	*	*	*	*	*	*	*	*	*	*	*	*	*	*	*	*	*	*
4d\	.	.	4d\	.	16dd\LL	.	16ff#\LL	.	4D\	-a	4A\	-a	4f#\	-a	4dd\	-a	4a\	.	4a\	.	.	.
.	.	.	.	.	16ee\	.	16gg\	.	.	.	.	.	.	.	.	.	.	.	.	.	.	.
.	.	.	.	.	16ff#\	.	16aa\	.	.	.	.	.	.	.	.	.	.	.	.	.	.	.
.	.	.	.	.	16ee\JJ	.	16gg\JJ	.	.	.	.	.	.	.	.	.	.	.	.	.	.	.
4r	.	.	4r	.	16dd\LL	.	16ff#\LL	.	4r	.	4r	.	4r	.	4r	.	4r	.	4r	.	.	.
.	.	.	.	.	16ee\	.	16gg\	.	.	.	.	.	.	.	.	.	.	.	.	.	.	.
.	.	.	.	.	16ff#\	.	16aa\	.	.	.	.	.	.	.	.	.	.	.	.	.	.	.
.	.	.	.	.	16ee\JJ	.	16gg\JJ	.	.	.	.	.	.	.	.	.	.	.	.	.	.	.
=11	=11	=11	=11	=11	=11	=11	=11	=11	=11	=11	=11	=11	=11	=11	=11	=11	=11	=11	=11	=11	=11	=11
!LO:TX:t=P:problem=mixed beam	!	!	!LO:TX:t=P:problem=mixed beam	!	!	!	!	!	!	!	!	!	!	!	!	!	!	!	!	!	!	!
8BB/L	.	.	8B/L	.	8dd\	.	8ff#\	.	4.B\	glo-	4.B\	glo-	4.f#\	glo-	4.dd\	glo-	4d/	.	4d/	.	1gg	1ddd
8B\	_	.	8b\	.	4dd\	.	4ff#\	.	.	.	.	.	.	.	.	.	.	.	.	.	.	.
8B\	.	.	8b\	.	.	.	.	.	.	.	.	.	.	.	.	.	8d/L	.	8d/L	.	.	.
8B\J	x	.	8b\J	.	8dd\	.	8ff#\	.	8B\	-ri-	8B\	-ri-	8f#\	-ri-	8dd\	-ri-	8d/J	.	8d/J	.	.	.
4B\	.	.	4b\	.	16dd\LL	.	16ff#\LL	.	4B\	-a	4B\	-a	4f#\	-a	4dd\	-a	4d/	.	4d/	.	.	.
.	.	.	.	.	16ee\	.	16gg\	.	.	.	.	.	.	.	.	.	.	.	.	.	.	.
.	.	.	.	.	16ff#\	.	16aa\	.	.	.	.	.	.	.	.	.	.	.	.	.	.	.
.	.	.	.	.	16ee\JJ	.	16gg\JJ	.	.	.	.	.	.	.	.	.	.	.	.	.	.	.
4r	.	.	4r	.	16dd\LL	.	16ff#\LL	.	4r	.	4r	.	4r	.	4r	.	4r	.	4r	.	.	.
.	.	.	.	.	16ee\	.	16gg\	.	.	.	.	.	.	.	.	.	.	.	.	.	.	.
.	.	.	.	.	16ff#\	.	16aa\	.	.	.	.	.	.	.	.	.	.	.	.	.	.	.
.	.	.	.	.	16ee\JJ	.	16gg\JJ	.	.	.	.	.	.	.	.	.	.	.	.	.	.	.
!LO:LB:g=original	!	!	!	!	!	!	!	!	!	!	!	!	!	!	!	!	!	!	!	!	!	!
=12	=12	=12	=12	=12	=12	=12	=12	=12	=12	=12	=12	=12	=12	=12	=12	=12	=12	=12	=12	=12	=12	=12
*	*	*	*tremolo	*	*	*	*	*	*	*	*	*	*	*	*	*	*	*	*	*	*	*
!LO:TX:t=P:problem=mixed beam	!	!	!	!	!	!	!	!	!	!	!	!	!	!	!	!	!	!	!	!	!	!
8GG/L	6 3	.	8g\L	.	8b\	.	8ee\	.	2G\	glo-	2B\	glo-	2e\	glo-	2dd\	glo-	1r	.	1r	.	1ee	1ddd
8G\	.	.	8g\	.	4b\	.	4ee\	.	.	.	.	.	.	.	.	.	.	.	.	.	.	.
8G\	.	.	8g\	.	.	.	.	.	.	.	.	.	.	.	.	.	.	.	.	.	.	.
8G\J	.	.	8g\J	.	4b\	.	4ee\	.	.	.	.	.	.	.	.	.	.	.	.	.	.	.
*	*	*	*Xtremolo	*	*	*	*	*	*	*	*	*	*	*	*	*	*	*	*	*	*	*
16G\LL	.	.	16g\LL	.	.	.	.	.	4G\	-ri-	4B\	-ri-	4e\	-ri-	4dd\	-ri-	.	.	.	.	.	.
16A\	.	.	16a\	.	.	.	.	.	.	.	.	.	.	.	.	.	.	.	.	.	.	.
16B\	.	.	16b\	.	4b\	.	4ee\	.	.	.	.	.	.	.	.	.	.	.	.	.	.	.
16A\JJ	.	.	16a\JJ	.	.	.	.	.	.	.	.	.	.	.	.	.	.	.	.	.	.	.
16G#X\LL	.	.	16g#X\LL	.	.	.	.	.	4G\	-a	4B\	-a	4e\	-a	4dd\	-a	.	.	.	.	.	.
16A\	.	.	16a\	.	.	.	.	.	.	.	.	.	.	.	.	.	.	.	.	.	.	.
16B\	.	.	16b\	.	8b\	.	8ee\	.	.	.	.	.	.	.	.	.	.	.	.	.	.	.
16G#\JJ	.	.	16g#\JJ	.	.	.	.	.	.	.	.	.	.	.	.	.	.	.	.	.	.	.
=13	=13	=13	=13	=13	=13	=13	=13	=13	=13	=13	=13	=13	=13	=13	=13	=13	=13	=13	=13	=13	=13	=13
*tremolo	*	*	*tremolo	*	*	*	*	*	*	*	*	*	*	*	*	*	*	*	*	*	*	*
8A\L	6 4	.	8a\L	.	8dd\	.	8ff#\	.	2A\	glo-	2A\	glo-	2f#\	glo-	2dd\	glo-	4d/	.	4a\	.	1ff#	1ddd
8A\	.	.	8a\	.	4ff#\	.	4ddd\	.	.	.	.	.	.	.	.	.	.	.	.	.	.	.
8A\	.	.	8a\	.	.	.	.	.	.	.	.	.	.	.	.	.	8d/L	.	8a\L	.	.	.
8A\J	.	.	8a\J	.	4ff#\	.	4ddd\	.	.	.	.	.	.	.	.	.	8d/J	.	8a\J	.	.	.
8A\L	_	.	8a\L	.	.	.	.	.	4A\	-ri-	4A\	-ri-	4f#\	-ri-	4dd\	-ri-	4d/	.	4a\	.	.	.
8A\	.	.	8a\	.	4ff#\	.	4ddd\	.	.	.	.	.	.	.	.	.	.	.	.	.	.	.
8A\	.	.	8a\	.	.	.	.	.	4A\	-a	4A\	-a	4f#\	-a	4dd\	-a	4d/	.	4a\	.	.	.
*	*	*	*	*	*	*	*	*	*	*Xij	*	*Xij	*	*Xij	*	*Xij	*	*	*	*	*	*
8A\J	x	.	8a\J	.	8ff#\	.	8ddd\	.	.	.	.	.	.	.	.	.	.	.	.	.	.	.
!	!	!	!	!	!LO:LB:g=original	!	!	!	!LO:LB:g=original	!	!	!	!	!	!	!	!	!	!	!	!LO:LB:g=original	!
=14	=14	=14	=14	=14	=14	=14	=14	=14	=14	=14	=14	=14	=14	=14	=14	=14	=14	=14	=14	=14	=14	=14
*	*	*	*	*	*	*	*	*	*	*	*	*	*	*	*	*	*	*	*	*	*	*2\right
8AA/L	5 4	.	2A/	.	8ee\	.	8ddd\	.	1A	tu-	1A	tu-	1e	tu-	2dd\	tu-	4a\	.	4a\	.	1ee	2ddd\
8AA/	.	.	.	.	4ee\	.	4ddd\	.	.	.	.	.	.	.	.	.	.	.	.	.	.	.
8AA/	.	.	.	.	.	.	.	.	.	.	.	.	.	.	.	.	8a\L	.	8a\L	.	.	.
8AA/J	.	.	.	.	4ee\	.	8ddd\	.	.	.	.	.	.	.	.	.	8a\J	.	8a\J	.	.	.
!	!	!	!	!	!	!	!LO:LB:g=original	!	!	!	!	!	!	!	!	!	!	!	!	!	!	!
=-	=-	=-	=-	=-	=-	=-	=-	=-	=-	=-	=-	=-	=-	=-	=-	=-	=-	=-	=-	=-	=-	=-
8AA/L	#	.	8A/L	.	.	.	8ccc#X\	.	.	.	.	.	.	.	2cc#X\	.	4a\	.	4a\	.	.	2ccc#X\
8AA/	.	.	8A/	.	4ee\	.	4ccc#\	.	.	.	.	.	.	.	.	.	.	.	.	.	.	.
8AA/	.	.	8A/	.	.	.	.	.	.	.	.	.	.	.	.	.	4a\	.	4a\	.	.	.
8AA/J	.	.	8A/J	.	8ee\	.	8ccc#\	.	.	.	.	.	.	.	.	.	.	.	.	.	.	.
*Xtremolo	*	*	*Xtremolo	*	*	*	*	*	*	*	*	*	*	*	*	*	*	*	*	*	*	*
!	!	!	!	!	!	!	!	!	!	!	!	!	!	!	!LO:LB:g=original	!	!	!	!	!	!	!
=15	=15	=15	=15	=15	=15	=15	=15	=15	=15	=15	=15	=15	=15	=15	=15	=15	=15	=15	=15	=15	=15	=15
4D\	.	.	4A\ 4d	.	4ff#\	.	8ddd\	.	4D/	-a	4A\	-a	4f#\	-a	4dd\	-a	4a\	.	4a\	.	4ff#\	4ddd\
!	!	!	!	!	!	!	!	!LO:DY:a:t=p.	!	!	!	!	!	!	!	!	!	!	!	!	!	!
.	.	.	.	.	.	.	4dd\	p	.	.	.	.	.	.	.	.	.	.	.	.	.	.
4r	.	.	4r	.	4r	.	.	.	4r	.	4r	.	4r	.	4r	.	4r	.	4r	.	4r	4r
.	.	.	.	.	.	.	4dd\	.	.	.	.	.	.	.	.	.	.	.	.	.	.	.
2r	.	.	2r	.	2r	.	.	.	2r	.	2r	.	2r	.	2r	.	2r	.	2r	.	2r	2r
.	.	.	.	.	.	.	4dd\	.	.	.	.	.	.	.	.	.	.	.	.	.	.	.
.	.	.	.	.	.	.	8dd\	.	.	.	.	.	.	.	.	.	.	.	.	.	.	.
!	!	!	!LO:LB:g=original	!	!	!	!	!	!	!	!LO:LB:g=original	!	!LO:PB:g=original	!	!	!	!	!	!	!	!	!
=16	=16	=16	=16	=16	=16	=16	=16	=16	=16	=16	=16	=16	=16	=16	=16	=16	=16	=16	=16	=16	=16	=16
!LO:TX:b:i:t=ped Violone	!	!LO:DY:a:rj	!	!LO:DY:a:t=p.	!	!LO:DY:a:t=p.	!	!	!	!	!	!	!	!	!LO:TX:a:t=4:color=grey	!	!	!	!	!	!	!
1cn	.	p	1A	p	(8d/L	p	1dd	.	00r	.	00r	.	00r	.	00r	.	00r	.	00r	.	00r	00r
.	.	.	.	.	8f#/)	.	.	.	.	.	.	.	.	.	.	.	.	.	.	.	.	.
.	.	.	.	.	8f#|</	.	.	.	.	.	.	.	.	.	.	.	.	.	.	.	.	.
.	.	.	.	.	8f#|</J	.	.	.	.	.	.	.	.	.	.	.	.	.	.	.	.	.
.	.	.	.	.	16f#/LL	.	.	.	.	.	.	.	.	.	.	.	.	.	.	.	.	.
.	.	.	.	.	16g/	.	.	.	.	.	.	.	.	.	.	.	.	.	.	.	.	.
.	.	.	.	.	16a/	.	.	.	.	.	.	.	.	.	.	.	.	.	.	.	.	.
.	.	.	.	.	16g/JJ	.	.	.	.	.	.	.	.	.	.	.	.	.	.	.	.	.
.	.	.	.	.	16f#/LL	.	.	.	.	.	.	.	.	.	.	.	.	.	.	.	.	.
.	.	.	.	.	16g/	.	.	.	.	.	.	.	.	.	.	.	.	.	.	.	.	.
.	.	.	.	.	16a/	.	.	.	.	.	.	.	.	.	.	.	.	.	.	.	.	.
.	.	.	.	.	16f#/JJ	.	.	.	.	.	.	.	.	.	.	.	.	.	.	.	.	.
=17	=17	=17	=17	=17	=17	=17	=17	=17	=17	=17	=17	=17	=17	=17	=17	=17	=17	=17	=17	=17	=17	=17
1B	.	.	1B	.	8d/L	.	1dd	.	.	.	.	.	.	.	.	.	.	.	.	.	.	.
.	.	.	.	.	8g/	.	.	.	.	.	.	.	.	.	.	.	.	.	.	.	.	.
.	.	.	.	.	8g/	.	.	.	.	.	.	.	.	.	.	.	.	.	.	.	.	.
.	.	.	.	.	8g/J	.	.	.	.	.	.	.	.	.	.	.	.	.	.	.	.	.
.	.	.	.	.	16g/LL	.	.	.	.	.	.	.	.	.	.	.	.	.	.	.	.	.
.	.	.	.	.	16a/	.	.	.	.	.	.	.	.	.	.	.	.	.	.	.	.	.
.	.	.	.	.	16b/	.	.	.	.	.	.	.	.	.	.	.	.	.	.	.	.	.
.	.	.	.	.	16a/JJ	.	.	.	.	.	.	.	.	.	.	.	.	.	.	.	.	.
.	.	.	.	.	16g/LL	.	.	.	.	.	.	.	.	.	.	.	.	.	.	.	.	.
.	.	.	.	.	16a/	.	.	.	.	.	.	.	.	.	.	.	.	.	.	.	.	.
.	.	.	.	.	16b/	.	.	.	.	.	.	.	.	.	.	.	.	.	.	.	.	.
.	.	.	.	.	16g/JJ	.	.	.	.	.	.	.	.	.	.	.	.	.	.	.	.	.
=18	=18	=18	=18	=18	=18	=18	=18	=18	=18	=18	=18	=18	=18	=18	=18	=18	=18	=18	=18	=18	=18	=18
1F#	.	.	1d	.	8d/L	.	1dd	.	.	.	.	.	.	.	.	.	.	.	.	.	.	.
.	.	.	.	.	8a/	.	.	.	.	.	.	.	.	.	.	.	.	.	.	.	.	.
.	.	.	.	.	8a/	.	.	.	.	.	.	.	.	.	.	.	.	.	.	.	.	.
.	.	.	.	.	8a/J	.	.	.	.	.	.	.	.	.	.	.	.	.	.	.	.	.
.	.	.	.	.	16a\LL	.	.	.	.	.	.	.	.	.	.	.	.	.	.	.	.	.
.	.	.	.	.	16b\	.	.	.	.	.	.	.	.	.	.	.	.	.	.	.	.	.
.	.	.	.	.	16cc\	.	.	.	.	.	.	.	.	.	.	.	.	.	.	.	.	.
.	.	.	.	.	16b\JJ	.	.	.	.	.	.	.	.	.	.	.	.	.	.	.	.	.
.	.	.	.	.	16a\LL	.	.	.	.	.	.	.	.	.	.	.	.	.	.	.	.	.
.	.	.	.	.	16b\	.	.	.	.	.	.	.	.	.	.	.	.	.	.	.	.	.
.	.	.	.	.	16cc\	.	.	.	.	.	.	.	.	.	.	.	.	.	.	.	.	.
.	.	.	.	.	16b\JJ	.	.	.	.	.	.	.	.	.	.	.	.	.	.	.	.	.
=19	=19	=19	=19	=19	=19	=19	=19	=19	=19	=19	=19	=19	=19	=19	=19	=19	=19	=19	=19	=19	=19	=19
!	!	!	!	!	!LO:TX:t=P:problem=mixed beam	!	!	!	!	!	!	!	!	!	!	!	!	!	!	!	!	!
2.G\	.	.	1d	.	8d/L	.	1dd	.	.	.	.	.	.	.	.	.	.	.	.	.	.	.
.	.	.	.	.	8b\	.	.	.	.	.	.	.	.	.	.	.	.	.	.	.	.	.
.	.	.	.	.	8b\	.	.	.	.	.	.	.	.	.	.	.	.	.	.	.	.	.
.	.	.	.	.	8b\J	.	.	.	.	.	.	.	.	.	.	.	.	.	.	.	.	.
.	.	.	.	.	16b\LL	.	.	.	.	.	.	.	.	.	.	.	.	.	.	.	.	.
.	.	.	.	.	16cc\	.	.	.	.	.	.	.	.	.	.	.	.	.	.	.	.	.
.	.	.	.	.	16dd\	.	.	.	.	.	.	.	.	.	.	.	.	.	.	.	.	.
.	.	.	.	.	16b\JJ	.	.	.	.	.	.	.	.	.	.	.	.	.	.	.	.	.
4B\	6	.	.	.	16g/LL	.	.	.	.	.	.	.	.	.	.	.	.	.	.	.	.	.
.	.	.	.	.	16a/	.	.	.	.	.	.	.	.	.	.	.	.	.	.	.	.	.
.	.	.	.	.	16b/	.	.	.	.	.	.	.	.	.	.	.	.	.	.	.	.	.
.	.	.	.	.	16g/JJ	.	.	.	.	.	.	.	.	.	.	.	.	.	.	.	.	.
=20	=20	=20	=20	=20	=20	=20	=20	=20	=20	=20	=20	=20	=20	=20	=20	=20	=20	=20	=20	=20	=20	=20
*	*	*	*	*	*	*	*2\right	*	*	*	*	*	*	*	*	*	*	*	*	*	*	*
*	*	*	*	*	*tremolo	*	*tremolo	*	*	*	*	*	*	*	*	*	*	*	*	*	*	*
!LO:TX:a:i:t=Tutti:rj	!	!	!	!LO:DY:a:t=for	!	!LO:DY:a:t=for	!	!LO:DY:a:rj	!	!	!	!	!	!	!	!	!	!	!	!	!	!
4F#\	.	.	8a\L	f	16cc\LL	f	16dd\LL	f	4F#\	glo-	4c\	glo-	4a\	glo-	4dd\	glo-	4d/	.	4a\	.	1dd	4cccn\
.	.	.	.	.	16cc\	.	16ddd\	.	.	.	.	.	.	.	.	.	.	.	.	.	.	.
.	.	.	8a\	.	16cc\	.	16dd\	.	.	.	.	.	.	.	.	.	.	.	.	.	.	.
.	.	.	.	.	16cc\JJ	.	16ddd\	.	.	.	.	.	.	.	.	.	.	.	.	.	.	.
4G\	.	.	8g\	.	16b\LL	.	16dd\	.	8G\	-ri-	8B\	-ri-	8g\	-ri-	8dd\	-ri-	4g\	.	4b\	.	.	4bb\
.	.	.	.	.	16b\	.	16ddd\	.	.	.	.	.	.	.	.	.	.	.	.	.	.	.
.	.	.	8g\J	.	16b\	.	16dd\	.	8G\	-a	8B\	-a	8g\	-a	8dd\	-a	.	.	.	.	.	.
.	.	.	.	.	16b\JJ	.	16ddd\JJ	.	.	.	.	.	.	.	.	.	.	.	.	.	.	.
4F#\	6 5	.	8a\L	.	16cc\LL	.	16dd\LL	.	4F#\	tu-	4c\	tu-	4a\	tu-	2dd\	tu-	4d/	.	4a\	.	.	4ccc\
.	.	.	.	.	16cc\	.	16ddd\	.	.	.	.	.	.	.	.	.	.	.	.	.	.	.
.	.	.	8a\	.	16cc\	.	16dd\	.	.	.	.	.	.	.	.	.	.	.	.	.	.	.
.	.	.	.	.	16cc\JJ	.	16ddd\	.	.	.	.	.	.	.	.	.	.	.	.	.	.	.
4G\	.	.	8g\	.	16b\LL	.	16dd\	.	4G\	.	4A\	.	4g\	.	.	.	4g\	.	4b\	.	.	4bb\
.	.	.	.	.	16b\	.	16ddd\	.	.	.	.	.	.	.	.	.	.	.	.	.	.	.
.	.	.	8g\J	.	16b\	.	16dd\	.	.	.	.	.	.	.	.	.	.	.	.	.	.	.
.	.	.	.	.	16b\JJ	.	16ddd\JJ	.	.	.	.	.	.	.	.	.	.	.	.	.	.	.
*	*	*	*	*	*Xtremolo	*	*Xtremolo	*	*	*	*	*	*	*	*	*	*	*	*	*	*	*
!	!	!	!	!	!	!	!	!	!	!	!	!	!	!	!	!	!LO:LB:g=original	!	!LO:LB:g=original	!	!	!
=21	=21	=21	=21	=21	=21	=21	=21	=21	=21	=21	=21	=21	=21	=21	=21	=21	=21	=21	=21	=21	=21	=21
4D\	.	.	4f#\	.	4f#/ 4a	.	8ddd\L	.	4D\	-a	4A\	-a	4f#\	-a	4dd\	-a	4d/	.	4a\	.	4dd\	4aa\
.	.	.	.	.	.	.	16dd\L	.	.	.	.	.	.	.	.	.	.	.	.	.	.	.
.	.	.	.	.	.	.	16ee\JJ	.	.	.	.	.	.	.	.	.	.	.	.	.	.	.
8D\L	.	.	8d\L	.	8f#/L 8a	.	8dd\L	.	4r	.	4r	.	4r	.	4r	.	8d/L	.	8a\L	.	8dd\L	8ddd\L
8D\J	.	.	8d\J	.	8f#/J 8a	.	8dd\J	.	.	.	.	.	.	.	.	.	8d/J	.	8a\J	.	8dd\J	8ddd\J
!LO:LB:g=original	!	!	!	!	!	!	!	!	!	!	!	!	!	!	!	!	!	!	!	!	!	!
=-	=-	=-	=-	=-	=-	=-	=-	=-	=-	=-	=-	=-	=-	=-	=-	=-	=-	=-	=-	=-	=-	=-
16D|>\LL	.	.	4d\	.	4f#/ 4a	.	4dd\	.	2r	.	2r	.	2r	.	2r	.	4d/	.	4a\	.	4dd\	4ddd\
16E|>\	.	.	.	.	.	.	.	.	.	.	.	.	.	.	.	.	.	.	.	.	.	.
16D|>\	.	.	.	.	.	.	.	.	.	.	.	.	.	.	.	.	.	.	.	.	.	.
16C|>\JJ	.	.	.	.	.	.	.	.	.	.	.	.	.	.	.	.	.	.	.	.	.	.
16BB|</LL	.	.	16d/LL	.	4r	.	4r	.	.	.	.	.	.	.	.	.	4r	.	4r	.	4r	4r
16C|</	.	.	16c/	.	.	.	.	.	.	.	.	.	.	.	.	.	.	.	.	.	.	.
16BB|</	.	.	16B/	.	.	.	.	.	.	.	.	.	.	.	.	.	.	.	.	.	.	.
16AA|</JJ	.	.	16A/JJ	.	.	.	.	.	.	.	.	.	.	.	.	.	.	.	.	.	.	.
=22	=22	=22	=22	=22	=22	=22	=22	=22	=22	=22	=22	=22	=22	=22	=22	=22	=22	=22	=22	=22	=22	=22
!	!	!	!LO:TX:t=P:problem=mixed beam	!	!	!	!LO:TX:t=P:problem=mixed beam	!	!	!	!	!	!	!	!	!	!	!	!	!	!	!
4GG/	8 3	.	8G/L	.	16d/LL	.	8g/L	.	2G\	Ple-	2d\	Ple-	2g\	Ple-	2b\	Ple-	4B/	.	4g\	.	4b\	4gg\
.	.	.	.	.	16b/	.	.	.	.	.	.	.	.	.	.	.	.	.	.	.	.	.
.	.	.	8g\	.	16d/	.	8gg\	.	.	.	.	.	.	.	.	.	.	.	.	.	.	.
.	.	.	.	.	16b/JJ	.	.	.	.	.	.	.	.	.	.	.	.	.	.	.	.	.
!	!	!	!	!	!LO:LB:g=original	!	!	!	!	!	!	!	!	!	!	!	!	!	!	!	!	!
=-	=-	=-	=-	=-	=-	=-	=-	=-	=-	=-	=-	=-	=-	=-	=-	=-	=-	=-	=-	=-	=-	=-
*	*	*	*	*	*rep	*	*	*	*	*	*	*	*	*	*	*	*	*	*	*	*	*
4G\	_	.	8g\	.	16d/LL	.	8gg\	.	.	.	.	.	.	.	.	.	8B/L	.	8g\L	.	8b\L	8gg\L
.	.	.	.	.	16b/	.	.	.	.	.	.	.	.	.	.	.	.	.	.	.	.	.
.	.	.	8g\J	.	16d/	.	8gg\J	.	.	.	.	.	.	.	.	.	8B/J	.	8g\J	.	8b\J	8gg\J
.	.	.	.	.	16b/JJ	.	.	.	.	.	.	.	.	.	.	.	.	.	.	.	.	.
*	*	*	*	*	*Xrep	*	*	*	*	*	*	*	*	*	*	*	*	*	*	*	*	*
*	*	*	*tremolo	*	*rep	*	*	*	*	*	*	*	*	*	*	*	*	*	*	*	*	*
4G\	x	.	8g\L	.	16d/LL	.	16gg\LL	.	4G\	-ni	4d\	-ni	4g\	-ni	4b\	-ni	4B/	.	4g\	.	4b\	4gg\
.	.	.	.	.	16b/	.	16aa\	.	.	.	.	.	.	.	.	.	.	.	.	.	.	.
.	.	.	8g\	.	16d/	.	16bb\	.	.	.	.	.	.	.	.	.	.	.	.	.	.	.
.	.	.	.	.	16b/JJ	.	16aa\JJ	.	.	.	.	.	.	.	.	.	.	.	.	.	.	.
*	*	*	*	*	*Xrep	*	*	*	*	*	*	*	*	*	*	*	*	*	*	*	*	*
*	*	*	*	*	*rep	*	*	*	*	*	*	*	*	*	*	*	*	*	*	*	*	*
4r	.	.	8g\	.	16d/LL	.	16gg\LL	.	4G\	sunt	4d\	sunt	4g\	sunt	4b\	sunt	4B/	.	4g\	.	4b\	4gg\
.	.	.	.	.	16b/	.	16aa\	.	.	.	.	.	.	.	.	.	.	.	.	.	.	.
.	.	.	8g\J	.	16d/	.	16bb\	.	.	.	.	.	.	.	.	.	.	.	.	.	.	.
.	.	.	.	.	16b/JJ	.	16aa\JJ	.	.	.	.	.	.	.	.	.	.	.	.	.	.	.
*	*	*	*	*	*Xrep	*	*	*	*	*	*	*	*	*	*	*	*	*	*	*	*	*
=23	=23	=23	=23	=23	=23	=23	=23	=23	=23	=23	=23	=23	=23	=23	=23	=23	=23	=23	=23	=23	=23	=23
!LO:TX:t=P:problem=mixed beam	!	!	!	!	!	!	!	!	!	!	!	!	!	!	!	!	!	!	!	!	!	!
8EE/L	.	.	8e\L	.	16g/LL	.	4gg\	.	2E\	Coe-	2e\	Coe-	2g\	Coe-	2b\	Coe-	1B	.	1g	.	1b	1gg
.	.	.	.	.	16b/	.	.	.	.	.	.	.	.	.	.	.	.	.	.	.	.	.
8E\	_	.	8e\	.	16g/	.	.	.	.	.	.	.	.	.	.	.	.	.	.	.	.	.
.	.	.	.	.	16b/JJ	.	.	.	.	.	.	.	.	.	.	.	.	.	.	.	.	.
*	*	*	*	*	*rep	*	*	*	*	*	*	*	*	*	*	*	*	*	*	*	*	*
8E\	.	.	8e\	.	16g/LL	.	4gg\	.	.	.	.	.	.	.	.	.	.	.	.	.	.	.
.	.	.	.	.	16b/	.	.	.	.	.	.	.	.	.	.	.	.	.	.	.	.	.
8E\J	x	.	8e\J	.	16g/	.	.	.	.	.	.	.	.	.	.	.	.	.	.	.	.	.
.	.	.	.	.	16b/JJ	.	.	.	.	.	.	.	.	.	.	.	.	.	.	.	.	.
*	*	*	*Xtremolo	*	*Xrep	*	*	*	*	*	*	*	*	*	*	*	*	*	*	*	*	*
*	*	*	*	*	*rep	*	*	*	*	*	*	*	*	*	*	*	*	*	*	*	*	*
16E\LL	.	.	16e\LL	.	16g/LL	.	4gg\	.	4E\	-li	4e\	-li	4g\	-li	4b\	-li	.	.	.	.	.	.
16F#\	.	.	16f#\	.	16b/	.	.	.	.	.	.	.	.	.	.	.	.	.	.	.	.	.
16G\	.	.	16g\	.	16g/	.	.	.	.	.	.	.	.	.	.	.	.	.	.	.	.	.
16F#\JJ	.	.	16f#\JJ	.	16b/JJ	.	.	.	.	.	.	.	.	.	.	.	.	.	.	.	.	.
*	*	*	*	*	*Xrep	*	*	*	*	*	*	*	*	*	*	*	*	*	*	*	*	*
*	*	*	*	*	*rep	*	*	*	*	*	*	*	*	*	*	*	*	*	*	*	*	*
16E\LL	.	.	16e\LL	.	16g/LL	.	4r	.	4E\	et	4e\	et	4g\	et	4b\	et	.	.	.	.	.	.
16F#\	.	.	16f#\	.	16b/	.	.	.	.	.	.	.	.	.	.	.	.	.	.	.	.	.
16G\	.	.	16g\	.	16g/	.	.	.	.	.	.	.	.	.	.	.	.	.	.	.	.	.
16D\JJ	.	.	16e\JJ	.	16b/JJ	.	.	.	.	.	.	.	.	.	.	.	.	.	.	.	.	.
*	*	*	*	*	*Xrep	*	*	*	*	*	*	*	*	*	*	*	*	*	*	*	*	*
!	!	!	!	!	!	!	!	!	!	!	!	!	!	!	!	!	!	!	!	!	!	!LO:LB:g=original
=24	=24	=24	=24	=24	=24	=24	=24	=24	=24	=24	=24	=24	=24	=24	=24	=24	=24	=24	=24	=24	=24	=24
*	*	*	*tremolo	*	*tremolo	*	*	*	*	*	*	*	*	*	*	*	*	*	*	*	*	*
!	!	!	!	!	!	!	!LO:TX:t=P:problem=mixed beam	!	!	!	!	!	!	!	!	!	!	!	!	!	!	!
4C/	6	.	8c\L	.	16e/LL	.	8a/L	.	2C/	ter-	2e\	ter-	2a\	ter-	2cc\	ter-	4a\	.	4a\	.	4ee\	4aa\
.	.	.	.	.	16cc/	.	.	.	.	.	.	.	.	.	.	.	.	.	.	.	.	.
.	.	.	8c\	.	16e/	.	8aa\	.	.	.	.	.	.	.	.	.	.	.	.	.	.	.
.	.	.	.	.	16cc/	.	.	.	.	.	.	.	.	.	.	.	.	.	.	.	.	.
4C/	_	.	8c\	.	16e/	.	8aa\	.	.	.	.	.	.	.	.	.	8a\L	.	8a\L	.	8ee\L	8aa\L
.	.	.	.	.	16cc/	.	.	.	.	.	.	.	.	.	.	.	.	.	.	.	.	.
.	.	.	8c\J	.	16e/	.	8aa\J	.	.	.	.	.	.	.	.	.	8a\J	.	8a\J	.	8ee\J	8aa\J
.	.	.	.	.	16cc/JJ	.	.	.	.	.	.	.	.	.	.	.	.	.	.	.	.	.
!	!	!	!	!	!	!	!LO:LB:g=original	!	!	!	!	!	!	!	!	!	!	!	!	!	!	!
=-	=-	=-	=-	=-	=-	=-	=-	=-	=-	=-	=-	=-	=-	=-	=-	=-	=-	=-	=-	=-	=-	=-
*	*	*	*	*	*rep	*	*	*	*	*	*	*	*	*	*	*	*	*	*	*	*	*
4C/	6	.	8c\L	.	16e/LL	.	16aa\LL	.	2c\	-ra	2e\	-ra	2a\	-ra	2cc\	-ra	4a\	.	4a\	.	2ee\	2aa\
.	.	.	.	.	16cc/	.	16bb\	.	.	.	.	.	.	.	.	.	.	.	.	.	.	.
.	.	.	8c\	.	16e/	.	16ccc\	.	.	.	.	.	.	.	.	.	.	.	.	.	.	.
.	.	.	.	.	16cc/	.	16bb\JJ	.	.	.	.	.	.	.	.	.	.	.	.	.	.	.
4r	.	.	8c\	.	16e/	.	16aa\LL	.	.	.	.	.	.	.	.	.	4a\	.	4a\	.	.	.
.	.	.	.	.	16cc/	.	16bb\	.	.	.	.	.	.	.	.	.	.	.	.	.	.	.
.	.	.	8c\J	.	16e/	.	16ccc\	.	.	.	.	.	.	.	.	.	.	.	.	.	.	.
.	.	.	.	.	16cc/JJ	.	16bb\JJ	.	.	.	.	.	.	.	.	.	.	.	.	.	.	.
*	*	*	*	*	*Xrep	*	*	*	*	*	*	*	*	*	*	*	*	*	*	*	*	*
*	*	*	*	*	*Xtremolo	*	*	*	*	*	*	*	*	*	*	*	*	*	*	*	*	*
=25	=25	=25	=25	=25	=25	=25	=25	=25	=25	=25	=25	=25	=25	=25	=25	=25	=25	=25	=25	=25	=25	=25
8D\L	8 3	.	8d\L	.	16d/LL	.	4d/ 4a 4ff#	.	2d\	glo-	2d\	glo-	2f#\	glo-	2a\	glo-	1d	.	1a	.	1cc	4ff#\
.	.	.	.	.	16a/	.	.	.	.	.	.	.	.	.	.	.	.	.	.	.	.	.
8d\	.	.	8d\	.	16d/	.	.	.	.	.	.	.	.	.	.	.	.	.	.	.	.	.
.	.	.	.	.	16a/JJ	.	.	.	.	.	.	.	.	.	.	.	.	.	.	.	.	.
*	*	*	*	*	*rep	*	*	*	*	*	*	*	*	*	*	*	*	*	*	*	*	*
8d\	.	.	8d\	.	16d/LL	.	4d/ 4a 4ff#	.	.	.	.	.	.	.	.	.	.	.	.	.	.	8ff#\L
.	.	.	.	.	16a/	.	.	.	.	.	.	.	.	.	.	.	.	.	.	.	.	.
8d\J	.	.	8d\J	.	16d/	.	.	.	.	.	.	.	.	.	.	.	.	.	.	.	.	8ff#\J
.	.	.	.	.	16a/JJ	.	.	.	.	.	.	.	.	.	.	.	.	.	.	.	.	.
*	*	*	*Xtremolo	*	*Xrep	*	*	*	*	*	*	*	*	*	*	*	*	*	*	*	*	*
!	!	!	!	!	!	!	!	!	!LO:LB:g=original	!	!	!	!	!	!	!	!	!	!	!	!	!
=-	=-	=-	=-	=-	=-	=-	=-	=-	=-	=-	=-	=-	=-	=-	=-	=-	=-	=-	=-	=-	=-	=-
*	*	*	*	*	*rep	*	*	*	*	*	*	*	*	*	*	*	*	*	*	*	*	*
8d\L	.	.	16d\LL	.	16d/LL	.	4d/ 4a 4ff#	.	4D/	-ri-	4d\	-ri-	4f#\	-ri-	4a\	-ri-	.	.	.	.	.	4ff#\
.	.	.	16f#\	.	16a/	.	.	.	.	.	.	.	.	.	.	.	.	.	.	.	.	.
16e\L	.	.	16d\	.	16d/	.	.	.	.	.	.	.	.	.	.	.	.	.	.	.	.	.
16f#\JJ	.	.	16c\JJ	.	16a/JJ	.	.	.	.	.	.	.	.	.	.	.	.	.	.	.	.	.
*	*	*	*	*	*Xrep	*	*	*	*	*	*	*	*	*	*	*	*	*	*	*	*	*
*	*	*	*	*	*rep	*	*	*	*	*	*	*	*	*	*	*	*	*	*	*	*	*
16B\LL	.	.	16B/LL	.	16d/LL	.	4r	.	4D/	-a	4d\	-a	4f#\	-a	4a\	-a	.	.	.	.	.	4ff#\
16c\	.	.	16c/	.	16a/	.	.	.	.	.	.	.	.	.	.	.	.	.	.	.	.	.
16B\	.	.	16B/	.	16d/	.	.	.	.	.	.	.	.	.	.	.	.	.	.	.	.	.
16A\JJ	.	.	16A/JJ	.	16a/JJ	.	.	.	.	.	.	.	.	.	.	.	.	.	.	.	.	.
*	*	*	*	*	*Xrep	*	*	*	*	*	*	*	*	*	*	*	*	*	*	*	*	*
!	!	!	!LO:LB:g=original	!	!	!	!	!	!	!	!	!	!	!	!LO:LB:g=original	!	!	!	!	!	!	!
=26	=26	=26	=26	=26	=26	=26	=26	=26	=26	=26	=26	=26	=26	=26	=26	=26	=26	=26	=26	=26	=26	=26
*	*	*	*tremolo	*	*	*	*	*	*	*	*	*	*	*	*	*	*	*	*	*	*	*
!	!	!	!	!	!	!	!LO:TX:a:t=P:problem=4 takty zapisane repetycją	!	!	!	!	!	!	!	!	!	!	!	!	!	!	!
!	!	!	!	!	!	!	!LO:TX:t=P:problem=mixed beam	!	!	!	!	!	!	!	!	!	!	!	!	!	!	!
4G\	8 3	.	8G/L	.	16d/LL	.	8g/L	.	2G\	tu-	2d\	tu-	2g\	tu-	2b\	tu-	4B/	.	4g\	.	4b\	4gg\
.	.	.	.	.	16b/	.	.	.	.	.	.	.	.	.	.	.	.	.	.	.	.	.
.	.	.	8G/	.	16d/	.	8gg\	.	.	.	.	.	.	.	.	.	.	.	.	.	.	.
.	.	.	.	.	16b/JJ	.	.	.	.	.	.	.	.	.	.	.	.	.	.	.	.	.
*	*	*	*	*	*rep	*	*	*	*	*	*	*	*	*	*	*	*	*	*	*	*	*
4G\	.	.	8G/	.	16d/LL	.	8gg\	.	.	.	.	.	.	.	.	.	8B/L	.	8g\L	.	8b\L	8gg\L
.	.	.	.	.	16b/	.	.	.	.	.	.	.	.	.	.	.	.	.	.	.	.	.
.	.	.	8G/J	.	16d/	.	8gg\J	.	.	.	.	.	.	.	.	.	8B/J	.	8g\J	.	8b\J	8gg\J
.	.	.	.	.	16b/JJ	.	.	.	.	.	.	.	.	.	.	.	.	.	.	.	.	.
*	*	*	*	*	*Xrep	*	*	*	*	*	*	*	*	*	*	*	*	*	*	*	*	*
*	*	*	*	*	*rep	*	*	*	*	*	*	*	*	*	*	*	*	*	*	*	*	*
4G\	.	.	8g\L	.	16d/LL	.	16gg\LL	.	4G\	-a	4d\	-a	4g\	-a	4b\	-a	4B/	.	4g\	.	4b\	4gg\
.	.	.	.	.	16b/	.	16aa\	.	.	.	.	.	.	.	.	.	.	.	.	.	.	.
.	.	.	8g\	.	16d/	.	16bb\	.	.	.	.	.	.	.	.	.	.	.	.	.	.	.
.	.	.	.	.	16b/JJ	.	16aa\JJ	.	.	.	.	.	.	.	.	.	.	.	.	.	.	.
*	*	*	*	*	*Xrep	*	*	*	*	*	*	*	*	*	*	*	*	*	*	*	*	*
*	*	*	*	*	*rep	*	*	*	*	*	*	*	*	*	*	*	*	*	*	*	*	*
4r	.	.	8g\	.	16d/LL	.	16gg\LL	.	4G\	O-	4d\	O-	4g\	o-	4b\	O-	4B/	.	4g\	.	4b\	4gg\
.	.	.	.	.	16b/	.	16aa\	.	.	.	.	.	.	.	.	.	.	.	.	.	.	.
.	.	.	8g\J	.	16d/	.	16bb\	.	.	.	.	.	.	.	.	.	.	.	.	.	.	.
.	.	.	.	.	16b/JJ	.	16aa\JJ	.	.	.	.	.	.	.	.	.	.	.	.	.	.	.
*	*	*	*	*	*Xrep	*	*	*	*	*	*	*	*	*	*	*	*	*	*	*	*	*
!LO:LB:g=original	!	!	!	!	!	!	!	!	!	!	!	!	!LO:LB:g=original	!	!	!	!	!	!	!	!	!
=27	=27	=27	=27	=27	=27	=27	=27	=27	=27	=27	=27	=27	=27	=27	=27	=27	=27	=27	=27	=27	=27	=27
!LO:TX:t=P:problem=mixed beam	!	!	!	!	!	!	!	!	!	!	!	!	!	!	!	!	!	!	!	!	!	!
8EE/L	.	.	8e\L	.	16g/LL	.	4gg\	.	2E\	-san-	2e\	-san-	2g\	-san-	2b\	-san-	1B	.	1g	.	1b	1gg
.	.	.	.	.	16b/	.	.	.	.	.	.	.	.	.	.	.	.	.	.	.	.	.
8E\	_	.	8e\	.	16g/	.	.	.	.	.	.	.	.	.	.	.	.	.	.	.	.	.
.	.	.	.	.	16b/JJ	.	.	.	.	.	.	.	.	.	.	.	.	.	.	.	.	.
*	*	*	*	*	*rep	*	*	*	*	*	*	*	*	*	*	*	*	*	*	*	*	*
8E\	.	.	8e\	.	16g/LL	.	4gg\	.	.	.	.	.	.	.	.	.	.	.	.	.	.	.
.	.	.	.	.	16b/	.	.	.	.	.	.	.	.	.	.	.	.	.	.	.	.	.
8E\J	x	.	8e\J	.	16g/	.	.	.	.	.	.	.	.	.	.	.	.	.	.	.	.	.
.	.	.	.	.	16b/JJ	.	.	.	.	.	.	.	.	.	.	.	.	.	.	.	.	.
*	*	*	*Xtremolo	*	*Xrep	*	*	*	*	*	*	*	*	*	*	*	*	*	*	*	*	*
*	*	*	*	*	*rep	*	*	*	*	*	*	*	*	*	*	*	*	*	*	*	*	*
16E\LL	.	.	16e\LL	.	16g/LL	.	4gg\	.	2E\	-na	2e\	-na	2g\	-na	2b\	-na	.	.	.	.	.	.
16F#\	.	.	16f#\	.	16b/	.	.	.	.	.	.	.	.	.	.	.	.	.	.	.	.	.
16G\	.	.	16g\	.	16g/	.	.	.	.	.	.	.	.	.	.	.	.	.	.	.	.	.
16F#\JJ	.	.	16f#\JJ	.	16b/JJ	.	.	.	.	.	.	.	.	.	.	.	.	.	.	.	.	.
*	*	*	*	*	*Xrep	*	*	*	*	*	*	*	*	*	*	*	*	*	*	*	*	*
*	*	*	*	*	*rep	*	*	*	*	*	*	*	*	*	*	*	*	*	*	*	*	*
16E\LL	.	.	16e\LL	.	16g/LL	.	4r	.	.	.	.	.	.	.	.	.	.	.	.	.	.	.
16F#\	.	.	16f#\	.	16b/	.	.	.	.	.	.	.	.	.	.	.	.	.	.	.	.	.
16G\	.	.	16g\	.	16g/	.	.	.	.	.	.	.	.	.	.	.	.	.	.	.	.	.
16E\JJ	.	.	16e\JJ	.	16b/JJ	.	.	.	.	.	.	.	.	.	.	.	.	.	.	.	.	.
*	*	*	*	*	*Xrep	*	*	*	*	*	*	*	*	*	*	*	*	*	*	*	*	*
!	!	!	!	!	!	!	!	!	!	!	!LO:LB:g=original	!	!	!	!	!	!	!	!	!	!	!
=28	=28	=28	=28	=28	=28	=28	=28	=28	=28	=28	=28	=28	=28	=28	=28	=28	=28	=28	=28	=28	=28	=28
*	*	*	*tremolo	*	*	*	*	*	*	*	*	*	*	*	*	*	*	*	*	*	*	*
!	!	!	!	!	!	!	!LO:TX:t=P:problem=mixed beam	!	!	!	!	!	!	!	!	!	!	!	!	!	!	!
4C/	6	.	8c\L	.	16e/LL	.	8a/L	.	2C/	in	2e\	in	2a\	in	2cc\	in	4r	.	4a\	.	4ee\	4aa\
.	.	.	.	.	16cc/	.	.	.	.	.	.	.	.	.	.	.	.	.	.	.	.	.
.	.	.	8c\	.	16e/	.	8aa\	.	.	.	.	.	.	.	.	.	.	.	.	.	.	.
.	.	.	.	.	16cc/JJ	.	.	.	.	.	.	.	.	.	.	.	.	.	.	.	.	.
*	*	*	*	*	*rep	*	*	*	*	*	*	*	*	*	*	*	*	*	*	*	*	*
4C/	.	.	8c\	.	16e/LL	.	8aa\	.	.	.	.	.	.	.	.	.	8a\L	.	8a\L	.	8ee\L	8aa\L
.	.	.	.	.	16cc/	.	.	.	.	.	.	.	.	.	.	.	.	.	.	.	.	.
.	.	.	8c\J	.	16e/	.	8aa\J	.	.	.	.	.	.	.	.	.	8a\J	.	8a\J	.	8ee\J	8aa\J
.	.	.	.	.	16cc/JJ	.	.	.	.	.	.	.	.	.	.	.	.	.	.	.	.	.
*	*	*	*	*	*Xrep	*	*	*	*	*	*	*	*	*	*	*	*	*	*	*	*	*
*	*	*	*	*	*rep	*	*	*	*	*	*	*	*	*	*	*	*	*	*	*	*	*
4C/	.	.	8c\L	.	16e/LL	.	16aa\LL	.	2d\	ex-	2e\	ex-	2a\	ex-	2cc\	ex-	4a\	.	4a\	.	4ee\	4aa\
.	.	.	.	.	16cc/	.	16bb\	.	.	.	.	.	.	.	.	.	.	.	.	.	.	.
.	.	.	8c\	.	16e/	.	16ccc\	.	.	.	.	.	.	.	.	.	.	.	.	.	.	.
.	.	.	.	.	16cc/JJ	.	16bb\JJ	.	.	.	.	.	.	.	.	.	.	.	.	.	.	.
*	*	*	*	*	*Xrep	*	*	*	*	*	*	*	*	*	*	*	*	*	*	*	*	*
*	*	*	*	*	*rep	*	*	*	*	*	*	*	*	*	*	*	*	*	*	*	*	*
4r	.	.	8c\	.	16e/LL	.	16aa\LL	.	.	.	.	.	.	.	.	.	4a\	.	4a\	.	4ee\	4aa\
.	.	.	.	.	16cc/	.	16bb\	.	.	.	.	.	.	.	.	.	.	.	.	.	.	.
.	.	.	8c\J	.	16e/	.	16ccc\	.	.	.	.	.	.	.	.	.	.	.	.	.	.	.
.	.	.	.	.	16cc/JJ	.	16bb\JJ	.	.	.	.	.	.	.	.	.	.	.	.	.	.	.
*	*	*	*	*	*Xrep	*	*	*	*	*	*	*	*	*	*	*	*	*	*	*	*	*
=29	=29	=29	=29	=29	=29	=29	=29	=29	=29	=29	=29	=29	=29	=29	=29	=29	=29	=29	=29	=29	=29	=29
*	*	*	*	*	*tremolo	*	*	*	*	*	*	*	*	*	*	*	*	*	*	*	*	*
8D\L	8 3	.	8d\L	.	16d/LL	.	4d/ 4a 4ff#	.	(>2d\	-cel-	1d	-cel-	1f#	-cel-	1a	-cel-	1d	.	1a	.	1a	1ff#
.	.	.	.	.	16a/	.	.	.	.	.	.	.	.	.	.	.	.	.	.	.	.	.
8d\	_	.	8d\	.	16d/	.	.	.	.	.	.	.	.	.	.	.	.	.	.	.	.	.
.	.	.	.	.	16a/	.	.	.	.	.	.	.	.	.	.	.	.	.	.	.	.	.
8d\	.	.	8d\	.	16d/	.	4d/ 4a 4ff#	.	.	.	.	.	.	.	.	.	.	.	.	.	.	.
.	.	.	.	.	16a/	.	.	.	.	.	.	.	.	.	.	.	.	.	.	.	.	.
8d\J	x	.	8d\J	.	16d/	.	.	.	.	.	.	.	.	.	.	.	.	.	.	.	.	.
.	.	.	.	.	16a/JJ	.	.	.	.	.	.	.	.	.	.	.	.	.	.	.	.	.
*	*	*	*Xtremolo	*	*rep	*	*	*	*	*	*	*	*	*	*	*	*	*	*	*	*	*
16d\LL	.	.	16d\LL	.	16d/LL	.	4d/ 4a 4ff#	.	2D\)	.	.	.	.	.	.	.	.	.	.	.	.	.
16e\	.	.	16e\	.	16a/	.	.	.	.	.	.	.	.	.	.	.	.	.	.	.	.	.
16d\	_	.	16d\	.	16d/	.	.	.	.	.	.	.	.	.	.	.	.	.	.	.	.	.
16c\JJ	.	.	16c\JJ	.	16a/	.	.	.	.	.	.	.	.	.	.	.	.	.	.	.	.	.
16B\LL	x	.	16B/LL	.	16d/	.	4r	.	.	.	.	.	.	.	.	.	.	.	.	.	.	.
16c\	.	.	16c/	.	16a/	.	.	.	.	.	.	.	.	.	.	.	.	.	.	.	.	.
16B\	.	.	16B/	.	16d/	.	.	.	.	.	.	.	.	.	.	.	.	.	.	.	.	.
16A\JJ	.	.	16A/JJ	.	16a/JJ	.	.	.	.	.	.	.	.	.	.	.	.	.	.	.	.	.
*	*	*	*	*	*Xrep	*	*	*	*	*	*	*	*	*	*	*	*	*	*	*	*	*
*	*	*	*	*	*Xtremolo	*	*	*	*	*	*	*	*	*	*	*	*	*	*	*	*	*
=30	=30	=30	=30	=30	=30	=30	=30	=30	=30	=30	=30	=30	=30	=30	=30	=30	=30	=30	=30	=30	=30	=30
*tremolo	*	*	*tremolo	*	*	*	*	*	*	*	*	*	*	*	*	*	*	*	*	*	*	*
8G\L	.	.	8G/L	.	8b\	.	8gg\	.	4G\	-sis	4d\	-sis	4g\	-sis	4b\	-sis	1g	.	1b	.	1b	1gg
8G\	.	.	8G/	.	4b\	.	4gg\	.	.	.	.	.	.	.	.	.	.	.	.	.	.	.
8G\	.	.	8G/	.	.	.	.	.	4G\	O-	4d\	O-	4g\	O-	4b\	O-	.	.	.	.	.	.
8G\J	.	.	8G/J	.	4b\	.	4gg\	.	.	.	.	.	.	.	.	.	.	.	.	.	.	.
8E\L	5 3	.	8e\L	.	.	.	.	.	4E\	-san-	4e\	-san-	4g\	-san-	4b\	-san-	.	.	.	.	.	.
8E\	.	.	8e\	.	4b\	.	4gg\	.	.	.	.	.	.	.	.	.	.	.	.	.	.	.
8E\	.	.	8e\	.	.	.	.	.	4E\	-na	4e\	-na	4g\	-na	4b\	-na	.	.	.	.	.	.
8E\J	.	.	8e\J	.	8b\	.	8gg\	.	.	.	.	.	.	.	.	.	.	.	.	.	.	.
!	!	!	!	!	!LO:LB:g=original	!	!	!	!	!	!	!	!	!	!	!	!	!	!	!	!	!
=31	=31	=31	=31	=31	=31	=31	=31	=31	=31	=31	=31	=31	=31	=31	=31	=31	=31	=31	=31	=31	=31	=31
*	*	*	*	*	*	*	*	*	*	*	*	*	*	*	*	*	*2\right	*	*	*	*	*
8C/L	6 5	.	8e\L	.	8a/	.	8gg\	.	2C/	in	2e\	in	2g\	in	2a\	in	2g\	.	1a	.	1a	2gg\
8C/	.	.	8e\	.	4a/	.	4gg\	.	.	.	.	.	.	.	.	.	.	.	.	.	.	.
8C/	.	.	8e\	.	.	.	.	.	.	.	.	.	.	.	.	.	.	.	.	.	.	.
8C/J	.	.	8e\J	.	4a/	.	8gg\	.	.	.	.	.	.	.	.	.	.	.	.	.	.	.
8D\L	#	.	8d\L	.	.	.	8ff#\	.	2D/	ex-	2d\	ex-	2f#\	ex-	2a\	ex-	2d/	.	.	.	.	2ff#\
8D\	.	.	8d\	.	4a/	.	4ff#\	.	.	.	.	.	.	.	.	.	.	.	.	.	.	.
8D\	.	.	8d\	.	.	.	.	.	.	.	.	.	.	.	.	.	.	.	.	.	.	.
8D\J	.	.	8d\J	.	8a/	.	8ff#\	.	.	.	.	.	.	.	.	.	.	.	.	.	.	.
!	!	!	!	!	!	!	!	!	!	!	!	!	!	!	!	!	!LO:LB:g=original	!	!LO:LB:g=original	!	!LO:LB:g=original	!
=32	=32	=32	=32	=32	=32	=32	=32	=32	=32	=32	=32	=32	=32	=32	=32	=32	=32	=32	=32	=32	=32	=32
8G\L	.	.	8d\L	.	8b\	.	8gg\	.	2G\	-cel-	2d\	-cel-	2g\	-cel-	2b\	-cel-	1g	.	1b	.	1b	1gg
8G\	.	.	8d\	.	4b\	.	4gg\	.	.	.	.	.	.	.	.	.	.	.	.	.	.	.
8G\	.	.	8d\	.	.	.	.	.	.	.	.	.	.	.	.	.	.	.	.	.	.	.
8G\J	.	.	8d\J	.	4b\	.	4gg\	.	.	.	.	.	.	.	.	.	.	.	.	.	.	.
8E\L	.	.	8e\L	.	.	.	.	.	2E\	-sis	2e\	-sis	2g\	-sis	2b\	-sis	.	.	.	.	.	.
8E\	.	.	8e\	.	4b\	.	4gg\	.	.	.	.	.	.	.	.	.	.	.	.	.	.	.
8E\	.	.	8e\	.	.	.	.	.	.	.	.	.	.	.	.	.	.	.	.	.	.	.
8E\J	.	.	8e\J	.	8b\	.	8gg\	.	.	.	.	.	.	.	.	.	.	.	.	.	.	.
=33	=33	=33	=33	=33	=33	=33	=33	=33	=33	=33	=33	=33	=33	=33	=33	=33	=33	=33	=33	=33	=33	=33
8C\L	6 5	.	8e\L	.	8a/	.	8gg\	.	4C/	in	4e\	in	4g\	in	4a\	in	2g\	.	1a	.	2ee\	2gg\
8C\	.	.	8e\	.	4a/	.	4gg\	.	.	.	.	.	.	.	.	.	.	.	.	.	.	.
8C\	.	.	8e\	.	.	.	.	.	4C/	ex-	4e\	ex-	4g\	ex-	4a\	ex-	.	.	.	.	.	.
8C\J	.	.	8e\J	.	4a/	.	8gg\	.	.	.	.	.	.	.	.	.	.	.	.	.	.	.
8D\L	.	.	8d\L	.	.	.	8ff#\	.	2D/	-cel-	2d\	-cel-	2f#\	-cel-	2a\	-cel-	2d/	.	.	.	2a/	2ff#\
8D\	.	.	8d\	.	4a/	.	4ff#\	.	.	.	.	.	.	.	.	.	.	.	.	.	.	.
8D\	.	.	8d\	.	.	.	.	.	.	.	.	.	.	.	.	.	.	.	.	.	.	.
8D\J	.	.	8d\J	.	8a/	.	8ff#\	.	.	.	.	.	.	.	.	.	.	.	.	.	.	.
*Xtremolo	*	*	*Xtremolo	*	*	*	*	*	*	*	*	*	*	*	*	*	*	*	*	*	*	*
!LO:LB:g=original	!	!	!	!	!	!	!	!	!LO:LB:g=original	!	!	!	!	!	!	!	!	!	!	!	!	!LO:LB:g=original
=34	=34	=34	=34	=34	=34	=34	=34	=34	=34	=34	=34	=34	=34	=34	=34	=34	=34	=34	=34	=34	=34	=34
8G\L	.	.	8G/L	.	16d/LL	.	16gg\LL	.	4G\	-sis	4d\	-sis	4g\	-sis	4b\	-siſ	4g\	.	4b\	.	4b\	4gg\
.	.	.	.	.	16b/	.	16aa\	.	.	.	.	.	.	.	.	.	.	.	.	.	.	.
8G\	.	.	8G/	.	16d/	.	16bb\	.	.	.	.	.	.	.	.	.	.	.	.	.	.	.
.	.	.	.	.	16b/JJ	.	16aa\JJ	.	.	.	.	.	.	.	.	.	.	.	.	.	.	.
*	*	*	*	*	*rep	*	*	*	*	*	*	*	*	*	*	*	*	*	*	*	*	*
8B\	6	.	8B/	.	16d/LL	.	8gg\L	.	4G\	O-	4d\	O-	4g\	O-	4b\	O-	8g\L	.	8b\L	.	8b\L	8gg\L
.	.	.	.	.	16b/	.	.	.	.	.	.	.	.	.	.	.	.	.	.	.	.	.
8B\J	.	.	8B/J	.	16d/	.	8gg\J	.	.	.	.	.	.	.	.	.	8g\J	.	8b\J	.	8b\J	8gg\J
.	.	.	.	.	16b/JJ	.	.	.	.	.	.	.	.	.	.	.	.	.	.	.	.	.
*	*	*	*tremolo	*	*Xrep	*	*	*	*	*	*	*	*	*	*	*	*	*	*	*	*	*
!LO:TX:t=P:problem=mixed beam	!	!	!	!	!	!	!	!	!	!	!	!	!	!	!	!	!	!	!	!	!	!
8d\L	.	.	8d\L	.	16d/LL	.	16ff#\LL	.	4d\	-san-	4d\	-san-	4f#\	-san-	4a\	-san-	4d/	.	4a\	.	4a/	4ff#\
.	.	.	.	.	16a/	.	16gg\	.	.	.	.	.	.	.	.	.	.	.	.	.	.	.
8d\	.	.	8d\	.	16d/	.	16aa\	.	.	.	.	.	.	.	.	.	.	.	.	.	.	.
.	.	.	.	.	16a/JJ	.	16gg\JJ	.	.	.	.	.	.	.	.	.	.	.	.	.	.	.
*	*	*	*	*	*rep	*	*	*	*	*	*	*	*	*	*	*	*	*	*	*	*	*
8D/	.	.	8d\	.	16d/LL	.	8ff#\L	.	4D\	-na	4d\	-na	4f#\	-na	4a\	-na	4d/	.	4a\	.	8a/L	8ff#\L
.	.	.	.	.	16a/	.	.	.	.	.	.	.	.	.	.	.	.	.	.	.	.	.
8D/J	.	.	8d\J	.	16d/	.	8ff#\J	.	.	.	.	.	.	.	.	.	.	.	.	.	8a/J	8ff#\J
.	.	.	.	.	16a/JJ	.	.	.	.	.	.	.	.	.	.	.	.	.	.	.	.	.
*	*	*	*	*	*Xrep	*	*	*	*	*	*	*	*	*	*	*	*	*	*	*	*	*
!	!	!	!	!	!	!	!LO:LB:g=original	!	!	!	!	!	!LO:LB:g=original	!	!LO:LB:g=original	!	!	!	!	!	!	!
=35	=35	=35	=35	=35	=35	=35	=35	=35	=35	=35	=35	=35	=35	=35	=35	=35	=35	=35	=35	=35	=35	=35
*	*	*	*	*	*tremolo	*	*	*	*	*	*	*	*	*	*	*	*	*	*	*	*	*
8G\L	.	.	8d\L	.	16d/LL	.	16gg\LL	.	4G\	in	4d\	in	4g\	in	4b\	in	4g\	.	4b\	.	4b\	4gg\
.	.	.	.	.	16b/	.	16aa\	.	.	.	.	.	.	.	.	.	.	.	.	.	.	.
8G\	.	.	8d\	.	16d/	.	16bb\	.	.	.	.	.	.	.	.	.	.	.	.	.	.	.
.	.	.	.	.	16b/	.	16aa\JJ	.	.	.	.	.	.	.	.	.	.	.	.	.	.	.
8B\	.	.	8d\	.	16d/	.	8gg\L	.	4B\	ex-	4d\	ex-	4g\	ex-	4b\	ex-	8g\L	.	8b\L	.	8b\L	8gg\L
.	.	.	.	.	16b/	.	.	.	.	.	.	.	.	.	.	.	.	.	.	.	.	.
8B\J	6	.	8d\J	.	16d/	.	8gg\J	.	.	.	.	.	.	.	.	.	8g\J	.	8b\J	.	8b\J	8gg\J
.	.	.	.	.	16b/JJ	.	.	.	.	.	.	.	.	.	.	.	.	.	.	.	.	.
!LO:TX:t=P:problem=mixed beam	!	!	!	!	!	!	!	!	!	!	!	!	!	!	!	!	!	!	!	!	!	!
8d\L	.	.	8d\L	.	16d/LL	.	16ff#\LL	.	4d\	-cel-	2d\	-cel-	2f#\	-cel-	2a\	-cel-	4d/	.	4a\	.	4a/	4ff#\
.	.	.	.	.	16a/	.	16gg\	.	.	.	.	.	.	.	.	.	.	.	.	.	.	.
8d\	.	.	8d\	.	16d/	.	16aa\	.	.	.	.	.	.	.	.	.	.	.	.	.	.	.
.	.	.	.	.	16a/	.	16gg\JJ	.	.	.	.	.	.	.	.	.	.	.	.	.	.	.
8D/	.	.	8d\	.	16d/	.	8ff#\L	.	4D/	.	.	.	.	.	.	.	8d/L	.	8a\L	.	8a/L	8ff#\L
.	.	.	.	.	16a/	.	.	.	.	.	.	.	.	.	.	.	.	.	.	.	.	.
8D/J	.	.	8d\J	.	16d/	.	8ff#\J	.	.	.	.	.	.	.	.	.	8d/J	.	8a\J	.	8a/J	8ff#\J
.	.	.	.	.	16a/JJ	.	.	.	.	.	.	.	.	.	.	.	.	.	.	.	.	.
*	*	*	*Xtremolo	*	*Xtremolo	*	*	*	*	*	*	*	*	*	*	*	*	*	*	*	*	*
=36	=36	=36	=36	=36	=36	=36	=36	=36	=36	=36	=36	=36	=36	=36	=36	=36	=36	=36	=36	=36	=36	=36
4G\	.	.	4G/ 4d	.	4d/ 4b	.	4b\ 4gg	.	4G\	-sis	4d\	-sis	4g\	-sis	4b\	-siſ.	4g\	.	4b\	.	4b\	4gg\
4G\	.	.	4G/ 4d	.	4d/ 4b	.	4b\ 4gg	.	4r	.	4r	.	4r	.	4r	.	4B/	.	4g\	.	4b\	4gg\
4G\	.	.	4G/ 4d	.	4d/ 4b	.	4b\ 4gg	.	2r	.	2r	.	2r	.	2r	.	4B/	.	4g\	.	4b\	4gg\
4r	.	.	4r	.	4r	.	4r	.	.	.	.	.	.	.	.	.	4r	.	4r	.	4r	4r
!LO:LB:g=original	!	!	!LO:PB:g=original	!	!LO:LB:g=original	!	!	!	!LO:LB:g=original	!	!LO:LB:g=original	!	!LO:LB:g=original	!	!LO:PB:g=original	!	!LO:LB:g=original	!	!LO:LB:g=original	!	!LO:LB:g=original	!LO:PB:g=original
==	==	==	==	==	==	==	==	==	==	==	==	==	==	==	==	==	==	==	==	==	==	==
*-	*-	*-	*-	*-	*-	*-	*-	*-	*-	*-	*-	*-	*-	*-	*-	*-	*-	*-	*-	*-	*-	*-
!!!system-decoration: [(s1,s2)][(s3,s4)][(s5,s6,s7,s8)][(s9,s10,s11)][(s12)]
!!!RDF**kern: < = below
!!!RDF**kern: > = above
!!!RDF**kern: | = vertical stroke
!!!ENC: Andrzej Gręziak
!!!END: 2021-12-06
!!!ENC: Marta Chmielewska
!!!END: 2021-12-09
